; generated by SuperSlicer 2.5.59.13 on 2025-10-29 at 13:18:30 UTC

; 

; external perimeters extrusion width = 0.30mm
; perimeters extrusion width = 0.30mm
; infill extrusion width = 0.30mm
; solid infill extrusion width = 0.30mm
; top infill extrusion width = 0.30mm


M106 S255
M140 S50 ; set bed temperature
G10 P0 R210 ; sets the standby temperature
G10 P0 S210 ; set temperature
;TYPE:Custom
G1 E1 F1800
G21 ; set units to millimeters
G90 ; use absolute coordinates
M83 ; use relative distances for extrusion
; FILAMENT_START_GCODE
G10 P0 S210 ; set temperature
M116 ; wait for temperature to be reached
M190 S50 ; set bed temperature and wait for it to be reached
;LAYER_CHANGE
;Z:37.8
;HEIGHT:37.799999
; BEFORE_LAYER_CHANGE
;37.8
G92 E0

G1 E-1.000000 F2100
G1  Z6.2 F9000
G1  Z33.432
; AFTER_LAYER_CHANGE
;37.8
G1  Z33.632
M204 P1000 T1000
G1 X-0.758 Y-1.787 Z33.908
G1 X-1.516 Y-3.573 Z34.184
G1 X-2.274 Y-5.36 Z34.46
G1 X-3.032 Y-7.147 Z34.736
G1 X-3.79 Y-8.934 Z35.017
G1 X-4.548 Y-10.72 Z35.308
G1 X-5.306 Y-12.507 Z35.622
G1 X-6.065 Y-14.294 Z35.956
G1 X-6.823 Y-16.08 Z36.307
G1 X-7.581 Y-17.867 Z36.674
G1 X-8.339 Y-19.654 Z37.064
G1 X-9.097 Y-21.441 Z37.472
G1 X-9.855 Y-23.227 Z37.897
G1 X-10.613 Y-25.014 Z38.338
G1  Z38.138
G1 E1.000000 F2100
;TYPE:External perimeter
;WIDTH:0.299999
;HEIGHT:0.2
M106 S255
G1 F600
G1 X-10.34 Y-25.306 Z38.141 E0.00856 F180.0
G1 X-10.272 Y-25.411 Z38.148 E0.00265
M106 S255
;WIDTH:0.322318
M106 S255
G1 X-10.204 Y-25.515 Z38.154 E0.00289
M106 S255
;WIDTH:0.344637
M106 S255
G1 X-10.137 Y-25.619 Z38.161 E0.00311
M106 S255
;WIDTH:0.366956
M106 S255
G1 X-10.069 Y-25.723 Z38.168 E0.00335
G1 X-9.995 Y-25.775 Z38.166 E0.00244
G1 X-10.007 Y-25.864 Z38.185 E0.00243
M106 S255
M106 S255
G1 X-10.024 Y-25.992 Z38.167 E0.00349
G1 X-10.288 Y-25.966 Z38.176 E0.00714
G1 X-10.413 Y-25.899 Z38.201 E0.00383
M106 S255
;WIDTH:0.326574
M106 S255
G1 X-10.539 Y-25.832 Z38.225 E0.00336
G1 X-10.745 Y-25.837 Z38.223 E0.00487
M106 S255
;WIDTH:0.299999
M106 S255
G1 X-10.952 Y-25.842 Z38.181 E0.00441
G1 X-10.952 Y-25.129 Z38.181 E0.01526
G1 X-10.669 Y-25.033 Z38.151 E0.00637
M106 S255
;WIPE_START
G1 X-10.292 Y-25.064 Z38.089 F9000
;WIPE_END
G1 X-10.567 Y-25.49 Z38.216
;TYPE:Internal perimeter
;WIDTH:0.453184
M106 S255
G1 F600
G1 X-10.592 Y-25.446 Z38.212 E0.00175 F180.0
G1 X-10.644 Y-25.446 Z38.221 E0.00175
G1 X-10.669 Y-25.49 Z38.233 E0.00175
G1 X-10.644 Y-25.535 Z38.237 E0.00175
G1 X-10.592 Y-25.535 Z38.228 E0.00175
M106 S255
;LAYER_CHANGE
;Z:38.000000
;HEIGHT:0.200001
; BEFORE_LAYER_CHANGE
;38
G92 E0

G1 E-0.9 F2100
;WIPE_START
G1 F7200
G1 X-10.567 Y-25.49 Z38.216 E-0.01421 F180.0
G1 X-10.592 Y-25.446 Z38.212 E-0.01421
G1 X-10.644 Y-25.446 Z38.221 E-0.01421
G1 X-10.669 Y-25.49 Z38.233 E-0.01421
G1 X-10.644 Y-25.535 Z38.237 E-0.01421
G1 X-10.592 Y-25.535 Z38.228 E-0.01421
;WIPE_END
G1 E-0.01474 F2100
G1  Z38.428 F9000
; AFTER_LAYER_CHANGE
;38
G1 X-10.8 Y-25.8 Z38.437
G1 E1.000000 F2100
;WIDTH:0.299999
M106 S255
G1 F600
G1 X-10.804 Y-24.772 Z38.335 E0.02196 F180.0
G1 X-10.375 Y-25.246 Z38.337 E0.01367
G1 X-9.771 Y-25.804 Z38.334 E0.01757
G1 X-10.515 Y-25.804 Z38.435 E0.01591
G1 X-10.74 Y-25.801 Z38.436 E0.0048 F600.0
M106 S255
G1 X-11.061 Y-26.028 Z38.342 F180.0
M106 S255
G1 F600
G1 X-11.061 Y-24.267 Z38.308 E0.03765 F180.0
G1 X-11.015 Y-24.091 Z38.272 E0.0039
G1 X-10.695 Y-24.507 Z38.272 E0.01121
G1 X-10.184 Y-25.073 Z38.271 E0.0163
G1 X-9.545 Y-25.663 Z38.271 E0.0186
G1 X-8.999 Y-26.057 Z38.266 E0.01439
G1 X-9.594 Y-26.061 Z38.342 E0.01274
G1 X-10.817 Y-26.061 Z38.342 E0.02614
G1 X-11.002 Y-26.036 Z38.351 E0.00398
M106 S255
G1 X-11.318 Y-26.253 Z38.248 F9000
M106 S255
G1 F600
G1 X-11.318 Y-25.218 Z38.248 E0.02211 F180.0
G1 X-11.318 Y-24.184 Z38.248 E0.02211
G1 X-11.227 Y-23.91 Z38.235 E0.00618
G1 X-11.254 Y-23.382 Z38.226 E0.01131
G1 X-11.188 Y-23.349 Z38.207 E0.00158
G1 X-10.927 Y-23.783 Z38.207 E0.01083
G1 X-10.491 Y-24.35 Z38.206 E0.01529
G1 X-9.994 Y-24.901 Z38.205 E0.01586
G1 X-9.371 Y-25.473 Z38.205 E0.01809
G1 X-8.473 Y-26.115 Z38.206 E0.02358
G1 X-8.279 Y-26.227 Z38.206 E0.0048
G1 X-8.48 Y-26.302 Z38.25 E0.0046
G1 X-9.174 Y-26.318 Z38.248 E0.01485
G1 X-10.834 Y-26.318 Z38.248 E0.03548
G1 X-11.259 Y-26.261 Z38.269 E0.00915
M106 S255
G1 X-11.575 Y-26.478 Z38.155 F9000
;TYPE:External perimeter
M106 S255
G1 F600
G1 X-11.575 Y-25.281 Z38.155 E0.025585 F180.0
G1 X-11.575 Y-24.084 Z38.155 E0.025585
G1 X-11.499 Y-24.002 Z38.168 E0.00239
G1 X-11.511 Y-23.418 Z38.178 E0.0125
G1 X-11.511 Y-23.178 Z38.178 E0.00512
G1 X-11.279 Y-23.105 Z38.195 E0.00521
G1 X-11.214 Y-22.813 Z38.143 E0.00639
G1 X-10.941 Y-23.261 Z38.139 E0.01122
G1 X-10.492 Y-23.928 Z38.139 E0.01718
G1 X-9.803 Y-24.728 Z38.139 E0.02256
G1 X-9.197 Y-25.284 Z38.139 E0.01758
G1 X-8.324 Y-25.905 Z38.139 E0.02291
G1 X-7.853 Y-26.171 Z38.138 E0.01158
G1 X-7.709 Y-26.26 Z38.141 E0.0036
G1 X-8.288 Y-26.521 Z38.174 E0.01358
G1 X-8.525 Y-26.56 Z38.16 E0.00514
G1 X-9.171 Y-26.575 Z38.155 E0.01382
G1 X-10.852 Y-26.575 Z38.155 E0.03591
G1 X-11.516 Y-26.486 Z38.176 E0.01433
M106 S255
;WIPE_START
G1 X-11.375 Y-26.165 Z38.227 F9000
;WIPE_END
;LAYER_CHANGE
;Z:38.2
;HEIGHT:0.200001
; BEFORE_LAYER_CHANGE
;38.2
G92 E0

G1 E-0.9 F2100
;WIPE_START
G1 F7200
G1 X-11.593 Y-26.43 Z38.148 E-0.095 F180.0
;WIPE_END
G1 E-0.005 F2100
G1  Z38.348 F180.0
; AFTER_LAYER_CHANGE
;38.2
G1  Z38.548 F2100.0
; acceleration to travel
M204 P1000 T1500
G1 X-11.437 Y-24.563 Z38.605
G1 X-11.281 Y-22.695 Z38.545
G1 X-11.125 Y-20.828 Z38.311 F180.0
G1 X-10.969 Y-18.96 Z38.127
G1 X-10.813 Y-17.093 Z37.992
G1 X-10.657 Y-15.226 Z37.911 F2100.0
G1 X-10.501 Y-13.358 Z37.854 F180.0
G1 X-10.344 Y-11.491 Z37.797
G1 X-10.188 Y-9.623 Z37.741
G1 X-10.032 Y-7.756 Z37.684
G1 X-9.876 Y-5.889 Z37.627
G1 X-9.72 Y-4.021 Z37.57
G1 X-9.564 Y-2.154 Z37.513 F2100.0
G1 X-9.408 Y-0.286 Z37.457
G1 X-9.252 Y1.581 Z37.449
; decel to extrusion
M204 P1000 T1000
G1 X-9.111 Y3.266 Z37.557
G1 X-8.971 Y4.952 Z37.763
G1 X-8.83 Y6.638 Z38.055 F180.0
G1 X-8.689 Y8.323 Z38.385
; end travel
M204 P1000 T1500
G1  Z38.185
G1 E1.000000 F2100
;WIDTH:0.459938
M106 S255
G1 F480
G1 X-8.288 Y8.728 Z38.186 E0.01976 F180.0
G1 X-8.241 Y8.784 Z38.183 E0.00253
M106 S255
;WIDTH:0.439259
M106 S255
G1 X-8.194 Y8.839 Z38.181 E0.0024
M106 S255
;WIDTH:0.41665
M106 S255
G1 X-8.146 Y8.895 Z38.176 E0.00227
M106 S255
;WIDTH:0.394041
M106 S255
G1 X-8.099 Y8.95 Z38.172 E0.00213
M106 S255
;WIDTH:0.371432
M106 S255
G1 X-8.051 Y9.006 Z38.168 E0.00199
G1 X-7.987 Y9.051 Z38.171 E0.00216
M106 S255
;WIDTH:0.394201
M106 S255
G1 X-7.922 Y9.096 Z38.174 E0.0023
M106 S255
;WIDTH:0.41697
M106 S255
G1 X-7.858 Y9.142 Z38.177 E0.00246
M106 S255
;WIDTH:0.439738
M106 S255
G1 X-7.793 Y9.187 Z38.179 E0.0026
G1 X-7.728 Y9.212 Z38.188 E0.00231
M106 S255
;WIDTH:0.468046
M106 S255
G1 X-7.662 Y9.237 Z38.197 E0.00247
M106 S255
M204 P1000 T1000
G1 X-7.072 Y9.865 Z38.147 F9000
;WIDTH:0.38292
M106 S255
G1 F480
G1 X-7.135 Y9.902 Z38.123 E0.00208 F180.0
G1 X-7.072 Y9.938 Z38.125 E0.00208
G1 X-7.05 Y9.902 Z38.141 E0.0012
M106 S255
G1 E-0.9 F2100
;WIPE_START
G1 F7200
G1 X-7.072 Y9.938 Z38.125 E-0.01178 F180.0
G1 X-7.135 Y9.902 Z38.123 E-0.02039
G1 X-7.072 Y9.865 Z38.147 E-0.0204
;WIPE_END
G1 E-0.04743 F2100
G1  Z38.347 F180.0
; acceleration to travel
M204 P1000 T1500
G1 X-8.012 Y8.944 Z38.394
G1 X-8.953 Y8.023 Z38.391
; decel to extrusion
M204 P1000 T1000
G1 X-9.406 Y7.58 Z38.368
; end travel
M204 P1000 T1500
G1  Z38.168
G1 E1.000000 F2100
;WIDTH:0.36894
M106 S255
G1 F480
G1 X-9.436 Y7.527 Z38.172 E0.00167 F180.0
M106 S255
;WIDTH:0.392904
M106 S255
G1 X-9.467 Y7.473 Z38.176 E0.00179
M106 S255
;WIDTH:0.416867
M106 S255
G1 X-9.498 Y7.42 Z38.18 E0.00191
M106 S255
;WIDTH:0.440831
M106 S255
G1 X-9.528 Y7.367 Z38.184 E0.00203
M106 S255
;WIDTH:0.464794
M106 S255
G1 X-9.559 Y7.314 Z38.186 E0.00216
G1 X-9.72 Y7.082 Z38.187 E0.00989
M106 S255
;WIDTH:0.490422
M106 S255
G1 X-9.88 Y6.85 Z38.189 E0.01049
G1 X-9.889 Y6.824 Z38.191 E0.00103
M106 S255
;WIDTH:0.454454
M106 S255
G1 X-9.907 Y6.771 Z38.197 E0.00191
M106 S255
;WIDTH:0.407802
M106 S255
G1 X-9.925 Y6.718 Z38.197 E0.00169
G1 X-10.099 Y6.338 Z38.174 E0.0127
G1 X-10.131 Y6.308 Z38.179 E0.00133
M106 S255
;WIDTH:0.43599
M106 S255
G1 X-10.162 Y6.278 Z38.183 E0.00142
M106 S255
;WIDTH:0.464177
M106 S255
G1 X-10.194 Y6.248 Z38.187 E0.00153
M106 S255
;WIDTH:0.492364
M106 S255
G1 X-10.226 Y6.218 Z38.192 E0.00163
M106 S255
;WIDTH:0.520551
M106 S255
G1 X-10.257 Y6.188 Z38.196 E0.00173
M106 S255
;WIDTH:0.544566
M106 S255
G1 X-10.289 Y6.158 Z38.2 E0.00182
G1 X-10.549 Y5.718 Z38.2 E0.0213
M106 S255
; acceleration to travel
G1 X-10.881 Y5.026 Z38.198 F9000
; decel to extrusion
M204 P1000 T1000
G1 X-11.103 Y4.564 Z38.196
; end travel
;WIDTH:0.520146
M106 S255
G1 F480
M204 P1000 T1500
G1 X-11.258 Y4.162 Z38.196 E0.01712 F180.0
M106 S255
M204 P1000 T1000
G1 X-11.479 Y3.194 Z38.172 F9000
;WIDTH:0.305352
M106 S255
G1 F480
G1 X-11.495 Y3.223 Z38.181 E0.0 F180.0
G1 X-11.545 Y3.194 Z38.195 E0.00124
G1 X-11.495 Y3.166 Z38.175 E0.00124
M106 S255
; acceleration to travel
M204 P1000 T1500
G1 X-11.715 Y2.495 Z38.196 F9000
; decel to extrusion
M204 P1000 T1000
G1 X-11.862 Y2.047 Z38.185
; end travel
;WIDTH:0.38292
M106 S255
G1 F480
M204 P1000 T1500
G1 X-11.926 Y1.822 Z38.175 E0.00662 F180.0
G1 X-11.88 Y1.724 Z38.196 E0.00306
G1 X-11.854 Y1.098 Z38.167 E0.01772
G1 X-11.863 Y-0.252 Z38.15 E0.03816
G1 X-11.863 Y-2.11 Z38.15 E0.052527
G1 X-11.863 Y-3.968 Z38.15 E0.052527
G1 X-11.863 Y-5.826 Z38.15 E0.052527
G1 X-11.863 Y-7.684 Z38.15 E0.052527
G1 X-11.863 Y-9.542 Z38.15 E0.052527
G1 X-11.863 Y-11.4 Z38.15 E0.052527
G1 X-11.863 Y-13.258 Z38.15 E0.052527
G1 X-11.863 Y-15.116 Z38.15 E0.052527
M106 S255
G1 E-0.9 F2100
;WIPE_START
G1 F7200
G1 X-11.863 Y-14.773 Z38.15 E-0.095 F180.0
;WIPE_END
G1 E-0.005 F2100
G1  Z38.35 F180.0
; acceleration to travel
G1 X-11.673 Y-16.7 Z38.285
G1 X-11.483 Y-18.626 Z38.267
G1 X-11.293 Y-20.553 Z38.334
G1 X-11.103 Y-22.48 Z38.476
; decel to extrusion
M204 P1000 T1000
G1 X-10.994 Y-23.581 Z38.593 F2100.0
G1 X-10.886 Y-24.682 Z38.736
; end travel
M204 P1000 T1500
G1  Z38.536
G1 E1.000000 F2100
;TYPE:Internal infill
;WIDTH:0.3
M106 S255
G1 F3600
G1 X-10.556 Y-24.352 Z38.419 E0.00997
G1 X-9.344 Y-25.564 Z38.42 E0.03664
G1 X-9.257 Y-25.477 Z38.388 E0.00264
M106 S255
; acceleration to travel
G1 X-10.41 Y-25.858 Z38.616 F9000
; decel to extrusion
M204 P1000 T1000
G1 X-11.079 Y-26.079 Z38.535
; end travel
;TYPE:Internal perimeter
;WIDTH:0.299999
M106 S255
G1 F1668.2745
M204 P1000 T1500
G1 X-11.079 Y-24.566 Z38.535 E0.032325
G1 X-11.079 Y-23.054 Z38.343 E0.032325 F180.0
G1 X-10.966 Y-23.245 Z38.343 E0.00474
G1 X-10.364 Y-24.094 Z38.339 E0.02225
G1 X-9.817 Y-24.705 Z38.337 E0.01751
G1 X-9.115 Y-25.345 Z38.338 E0.02031
G1 X-8.329 Y-25.917 Z38.342 E0.02078
G1 X-8.055 Y-26.079 Z38.343 E0.00681
G1 X-9.537 Y-26.079 Z38.535 E0.031675
G1 X-11.019 Y-26.079 Z38.535 E0.031675 F1668.3
M106 S255
M204 P1000 T1000
G1 X-11.336 Y-26.336 Z38.442 F9000
M106 S255
G1 F2159.9983
G1 X-11.336 Y-24.885 Z38.442 E0.03101
G1 X-11.336 Y-23.435 Z38.442 E0.03101
G1 X-11.336 Y-21.984 Z38.279 E0.03101 F180.0
G1 X-11.103 Y-22.48 Z38.276 E0.01173
G1 X-10.794 Y-23.037 Z38.276 E0.01362
G1 X-10.757 Y-23.096 Z38.276 E0.00149
G1 X-10.154 Y-23.945 Z38.272 E0.02225
G1 X-9.627 Y-24.532 Z38.271 E0.01685
G1 X-8.943 Y-25.154 Z38.272 E0.01977
G1 X-8.179 Y-25.708 Z38.275 E0.02017
G1 X-7.37 Y-26.174 Z38.282 E0.01997
G1 X-7.01 Y-26.336 Z38.282 E0.00843
G1 X-8.432 Y-26.336 Z38.442 E0.030397
G1 X-9.854 Y-26.336 Z38.442 E0.030397 F2160.0
G1 X-11.276 Y-26.336 Z38.442 E0.030397
M106 S255
G1 X-11.593 Y-26.593 Z38.348 F180.0
M106 S255
G1 F2700
G1 X-11.593 Y-25.084 Z38.348 E0.03225 F180.0
G1 X-11.593 Y-23.575 Z38.348 E0.03225
G1 X-11.593 Y-22.067 Z38.348 E0.03225
G1 X-11.593 Y-20.558 Z38.218 E0.03225
G1 X-11.261 Y-21.533 Z38.209 E0.02201
G1 X-10.87 Y-22.371 Z38.206 E0.01976
G1 X-10.569 Y-22.912 Z38.208 E0.01324
G1 X-10.547 Y-22.947 Z38.208 E0.0
G1 X-9.944 Y-23.797 Z38.206 E0.02226
G1 X-9.437 Y-24.359 Z38.205 E0.01619
G1 X-8.771 Y-24.963 Z38.205 E0.01923
G1 X-8.029 Y-25.499 Z38.208 E0.01956
G1 X-7.242 Y-25.951 Z38.211 E0.0194
G1 X-6.583 Y-26.242 Z38.212 E0.0154
G1 X-5.817 Y-26.513 Z38.217 E0.01736
G1 X-5.645 Y-26.593 Z38.225 E0.00406
G1 X-7.608 Y-26.593 Z38.348 E0.04195
G1 X-9.57 Y-26.593 Z38.348 E0.04195
G1 X-11.533 Y-26.593 Z38.348 E0.04195
M106 S255
G1 E-0.9 F2100
;WIPE_START
G1 F7200
G1 X-11.19 Y-26.593 Z38.348 E-0.095 F180.0
;WIPE_END
G1 E-0.005 F2100
G1  Z38.548 F9000
; acceleration to travel
M204 P1000 T1500
G1 X-9.517 Y-26.633 Z38.534
G1 X-7.845 Y-26.672 Z38.519
G1 X-6.172 Y-26.712 Z38.501
; decel to extrusion
M204 P1000 T1000
G1 X-4.964 Y-26.74 Z38.419
; end travel
M204 P1000 T1500
G1  Z38.219 F180.0
G1 E1.000000 F2100
;TYPE:External perimeter
;WIDTH:0.519724
M106 S255
G1 F480
G1 X-4.817 Y-26.752 Z38.213 E0.00584 F180.0
M106 S255
;WIDTH:0.492952
M106 S255
G1 X-4.67 Y-26.763 Z38.208 E0.00551
M106 S255
;WIDTH:0.46618
M106 S255
G1 X-4.524 Y-26.775 Z38.203 E0.00519
M106 S255
;WIDTH:0.439408
M106 S255
G1 X-4.377 Y-26.786 Z38.198 E0.00485
M106 S255
;WIDTH:0.412636
M106 S255
G1 X-4.23 Y-26.798 Z38.194 E0.00453
M106 S255
;WIDTH:0.385864
M106 S255
G1 X-4.083 Y-26.809 Z38.191 E0.0042
M106 S255
;WIDTH:0.359092
M106 S255
G1 X-3.936 Y-26.82 Z38.188 E0.00387
G1 X-3.332 Y-26.814 Z38.164 E0.01588
G1 X-2.762 Y-26.834 Z38.153 E0.015
M106 S255
;WIDTH:0.38292
M106 S255
G1 X-2.192 Y-26.855 Z38.152 E0.01613
G1 X-1.423 Y-26.859 Z38.149 E0.02174
M106 S255
G1 E-0.9 F2100
;WIPE_START
G1 F7200
G1 X-1.766 Y-26.857 Z38.15 E-0.095 F180.0
;WIPE_END
G1 E-0.005 F2100
G1  Z38.35 F180.0
; acceleration to travel
G1 X-3.392 Y-26.856 Z38.379
G1 X-5.017 Y-26.855 Z38.453
G1 X-6.643 Y-26.853 Z38.453 F2100.0
G1 X-8.268 Y-26.852 Z38.454
G1 X-9.894 Y-26.851 Z38.454
; decel to extrusion
M204 P1000 T1000
G1 X-11.85 Y-26.85 Z38.455
; end travel
M204 P1000 T1500
G1  Z38.255 F180.0
G1 E1.000000 F2100
;WIDTH:0.299999
M106 S255
G1 F480
G1 X-11.85 Y-25.262 Z38.255 E0.033958 F180.0
G1 X-11.85 Y-23.673 Z38.255 E0.033958
G1 X-11.85 Y-22.084 Z38.255 E0.033958
G1 X-11.85 Y-20.496 Z38.255 E0.033958
G1 X-11.835 Y-20.224 Z38.26 E0.00581
M106 S255
;WIDTH:0.358593
M106 S255
G1 X-11.821 Y-19.953 Z38.242 E0.00714
G1 X-11.81 Y-19.904 Z38.236 E0.00132
M106 S255
;WIDTH:0.384371
M106 S255
G1 X-11.8 Y-19.855 Z38.23 E0.00142
M106 S255
;WIDTH:0.410148
M106 S255
G1 X-11.79 Y-19.806 Z38.224 E0.00153
M106 S255
;WIDTH:0.435925
M106 S255
G1 X-11.779 Y-19.757 Z38.217 E0.00163
M106 S255
;WIDTH:0.461702
M106 S255
G1 X-11.769 Y-19.708 Z38.212 E0.00174
G1 X-11.735 Y-19.735 Z38.203 E0.00154
M106 S255
;WIDTH:0.436418
M106 S255
G1 X-11.7 Y-19.763 Z38.194 E0.00144
M106 S255
;WIDTH:0.411133
M106 S255
G1 X-11.666 Y-19.791 Z38.186 E0.00136
M106 S255
;WIDTH:0.385849
M106 S255
G1 X-11.632 Y-19.818 Z38.177 E0.00126
M106 S255
;WIDTH:0.360564
M106 S255
G1 X-11.597 Y-19.846 Z38.169 E0.00116
M106 S255
;WIDTH:0.335279
M106 S255
G1 X-11.563 Y-19.874 Z38.16 E0.00107
G1 X-11.464 Y-20.153 Z38.149 E0.0072
M106 S255
;WIDTH:0.299999
M106 S255
G1 X-11.364 Y-20.431 Z38.143 E0.00632
G1 X-11.017 Y-21.45 Z38.141 E0.02301
G1 X-10.637 Y-22.262 Z38.136 E0.01916
G1 X-10.337 Y-22.799 Z38.14 E0.01314
G1 X-9.735 Y-23.648 Z38.139 E0.02226
G1 X-9.247 Y-24.186 Z38.139 E0.01553
G1 X-8.598 Y-24.772 Z38.139 E0.01869
G1 X-7.879 Y-25.29 Z38.14 E0.01895
G1 X-7.115 Y-25.728 Z38.141 E0.01882
G1 X-6.48 Y-26.007 Z38.142 E0.01483
G1 X-5.732 Y-26.27 Z38.143 E0.01694
G1 X-5.643 Y-26.324 Z38.151 E0.00224
M106 S255
;WIDTH:0.326298
M106 S255
G1 X-5.553 Y-26.379 Z38.158 E0.00246
M106 S255
;WIDTH:0.352597
M106 S255
G1 X-5.464 Y-26.433 Z38.165 E0.0027
M106 S255
;WIDTH:0.378896
M106 S255
G1 X-5.374 Y-26.488 Z38.173 E0.00293
M106 S255
;WIDTH:0.405194
M106 S255
G1 X-5.285 Y-26.542 Z38.181 E0.00315
M106 S255
;WIDTH:0.431493
M106 S255
G1 X-5.195 Y-26.596 Z38.191 E0.00338
M106 S255
;WIDTH:0.457792
M106 S255
G1 X-5.106 Y-26.651 Z38.201 E0.00361
M106 S255
;WIDTH:0.48409
M106 S255
G1 X-5.016 Y-26.705 Z38.212 E0.00384
M106 S255
;WIDTH:0.501907
M106 S255
G1 X-4.964 Y-26.74 Z38.219 E0.00241
M106 S255
;WIDTH:0.519724
M106 S255
