; generated by SuperSlicer 2.5.59.13 on 2025-10-29 at 13:18:42 UTC

; 

; external perimeters extrusion width = 0.30mm
; perimeters extrusion width = 0.30mm
; infill extrusion width = 0.30mm
; solid infill extrusion width = 0.30mm
; top infill extrusion width = 0.30mm


M106 S255
M140 S50 ; set bed temperature
G10 P0 R210 ; sets the standby temperature
G10 P0 S210 ; set temperature
;TYPE:Custom
G1 E1 F1800
G21 ; set units to millimeters
G90 ; use absolute coordinates
M83 ; use relative distances for extrusion
; FILAMENT_START_GCODE
G10 P0 S210 ; set temperature
M116 ; wait for temperature to be reached
M190 S50 ; set bed temperature and wait for it to be reached
;LAYER_CHANGE
;Z:45.8
;HEIGHT:45.799999
; BEFORE_LAYER_CHANGE
;45.8
G92 E0

G1 E-1.000000 F2100
G1 Z0.2 F9000
G1 Z45.8
; AFTER_LAYER_CHANGE
;45.8
G1 Z46
M204 P1000 T1000
G1 X4.418 Y10.935
G1 Z45.8
G1 E1.000000 F2100
;TYPE:Solid infill
;WIDTH:0.28802
;HEIGHT:0.2
M106 S255
G1 F1200
G1 X4.309 Y10.827 E0.00316
G1 X4.116 Y10.847 E0.00399
G1 X4.003 Y10.884 E0.00244
G1 X4.152 Y11.033 E0.00435
G1 X3.922 Y11.166 E0.00546
G1 X3.727 Y10.972 E0.00565
G1 X3.452 Y11.06 E0.00593
G1 X3.691 Y11.3 E0.00695
G1 X3.461 Y11.433 E0.00546
G1 X3.177 Y11.148 E0.00825
G1 X2.901 Y11.237 E0.00593
G1 X3.231 Y11.566 E0.00955
G1 X3 Y11.699 E0.00547
G1 X2.602 Y11.301 E0.01154
G1 X2.298 Y11.361 E0.00636
G1 X2.77 Y11.832 E0.01367
G1 X2.539 Y11.965 E0.00546
G1 X1.995 Y11.421 E0.0158
G1 X1.691 Y11.481 E0.00635
G1 X2.309 Y12.098 E0.01792
G1 X2.078 Y12.231 E0.00546
G1 X1.362 Y11.515 E0.02078
G1 X1.026 Y11.543 E0.00692
G1 X1.848 Y12.364 E0.02384
G1 X1.617 Y12.497 E0.00547
G1 X0.69 Y11.57 E0.0269
G1 X0.354 Y11.598 E0.00692
G1 X1.387 Y12.63 E0.02997
G1 X1.156 Y12.763 E0.00546
G1 X-0.011 Y11.596 E0.03388
G1 X-0.386 Y11.584 E0.0077
G1 X0.926 Y12.896 E0.03808
G1 X0.695 Y13.029 E0.00546
G1 X-0.762 Y11.573 E0.04228
G1 X-0.986 Y11.566 E0.00462
G1 X-1.156 Y11.542 E0.00351
G1 X0.465 Y13.163 E0.04703
G1 X0.234 Y13.296 E0.00547
G1 X-1.579 Y11.483 E0.05261
G1 X-2.001 Y11.424 E0.00876
G1 X0.004 Y13.429 E0.0582
G1 X-0.227 Y13.562 E0.00546
G1 X-2.454 Y11.335 E0.06462
G1 X-2.94 Y11.212 E0.0103
G1 X-0.457 Y13.695 E0.07206
G1 X-0.688 Y13.828 E0.00546
G1 X-3.426 Y11.089 E0.07948
G1 X-3.448 Y11.084 E0.00045
G1 X-3.997 Y10.883 E0.012
G1 X-0.918 Y13.961 E0.08935
G1 X-1.149 Y14.094 E0.00546
G1 X-4.58 Y10.663 E0.09957
G1 X-5.292 Y10.314 E0.01628
G1 X-1.379 Y14.227 E0.11357
G1 X-1.61 Y14.36 E0.00546
G1 X-6.493 Y9.477 E0.14171
M106 S255
G1 E-0.9 F2100
;WIPE_START
G1 F7200
G1 X-6.25 Y9.72 E-0.095
;WIPE_END
G1 E-0.005 F2100
G1 Z46 F9000
; acceleration to travel
M204 P1000 T1500
G1 X-9.824 Y5.27
; decel to extrusion
M204 P1000 T1000
G1 X-10.697 Y4.183
; end travel
M204 P1000 T1500
G1 Z45.8
G1 E1.000000 F2100
M106 S255
G1 F1200
G1 X-10.891 Y3.988 E0.00564
G1 X-10.891 Y4.352 E0.00746
G1 X-10.664 Y4.579 E0.0066
G1 X-10.314 Y5.292 E0.0163
G1 X-10.891 Y4.715 E0.01675
G1 X-10.891 Y5.079 E0.00746
G1 X-9.477 Y6.493 E0.04105
M106 S255
; acceleration to travel
G1 X-10.392 Y5.796 F9000
; decel to extrusion
M204 P1000 T1000
G1 X-11.002 Y5.332
; end travel
M106 S255
G1 F1200
M204 P1000 T1500
G1 X-1.84 Y14.493 E0.26589
G1 X-2.071 Y14.626 E0.00546
G1 X-10.891 Y5.806 E0.256
G1 X-10.891 Y6.17 E0.00746
G1 X-2.301 Y14.759 E0.24931
G1 X-2.532 Y14.893 E0.00546
G1 X-10.891 Y6.533 E0.24262
G1 X-10.891 Y6.897 E0.00746
G1 X-2.762 Y15.026 E0.23592
G1 X-2.993 Y15.159 E0.00547
G1 X-10.891 Y7.26 E0.22923
G1 X-10.891 Y7.624 E0.00747
G1 X-3.223 Y15.292 E0.22254
G1 X-3.454 Y15.425 E0.00547
G1 X-10.891 Y7.987 E0.21585
G1 X-10.891 Y8.351 E0.00747
G1 X-3.684 Y15.558 E0.20916
G1 X-3.915 Y15.691 E0.00547
G1 X-10.891 Y8.715 E0.20248
G1 X-10.891 Y9.078 E0.00746
G1 X-4.145 Y15.824 E0.19579
G1 X-4.376 Y15.957 E0.00546
G1 X-10.891 Y9.442 E0.1891
G1 X-10.891 Y9.805 E0.00746
G1 X-4.606 Y16.09 E0.18241
G1 X-4.837 Y16.223 E0.00546
G1 X-10.891 Y10.169 E0.17572
G1 X-10.891 Y10.532 E0.00746
G1 X-5.067 Y16.356 E0.16903
G1 X-5.298 Y16.489 E0.00547
G1 X-10.891 Y10.896 E0.16234
G1 X-10.891 Y11.259 E0.00746
G1 X-5.528 Y16.622 E0.15565
G1 X-5.759 Y16.756 E0.00546
G1 X-10.891 Y11.623 E0.14897
G1 X-10.891 Y11.987 E0.00746
G1 X-5.989 Y16.889 E0.14227
G1 X-6.22 Y17.022 E0.00546
G1 X-10.891 Y12.35 E0.13559
G1 X-10.891 Y12.714 E0.00746
G1 X-6.45 Y17.155 E0.12889
G1 X-6.681 Y17.288 E0.00546
G1 X-10.891 Y13.077 E0.12221
G1 X-10.891 Y13.441 E0.00746
G1 X-6.911 Y17.421 E0.11551
G1 X-7.142 Y17.554 E0.00546
G1 X-10.891 Y13.804 E0.10883
G1 X-10.891 Y14.168 E0.00746
G1 X-7.372 Y17.687 E0.10213
G1 X-7.603 Y17.82 E0.00547
G1 X-10.891 Y14.532 E0.09544
G1 X-10.891 Y14.895 E0.00746
G1 X-7.844 Y17.942 E0.08845
G1 X-8.088 Y18.062 E0.00558
G1 X-10.891 Y15.259 E0.08135
G1 X-10.891 Y15.622 E0.00746
G1 X-8.352 Y18.161 E0.07369
G1 X-8.627 Y18.25 E0.00592
G1 X-10.891 Y15.986 E0.06572
G1 X-10.891 Y16.349 E0.00746
G1 X-8.928 Y18.312 E0.05697
G1 X-9.24 Y18.365 E0.00647
G1 X-10.891 Y16.713 E0.04794
G1 X-10.891 Y17.077 E0.00746
G1 X-9.598 Y18.37 E0.03753
G1 X-9.956 Y18.375 E0.00736
G1 X-10.891 Y17.44 E0.02713
G1 X-10.891 Y17.804 E0.00746
G1 X-10.315 Y18.38 E0.01673
G1 X-10.673 Y18.385 E0.00736
G1 X-11.002 Y18.057 E0.00953
M106 S255
G1 E-0.9 F2100
;WIPE_START
G1 F7200
G1 X-10.759 Y18.299 E-0.095
;WIPE_END
G1 E-0.005 F2100
G1 Z46 F9000
; acceleration to travel
G1 X19.169 Y-17.303
; decel to extrusion
M204 P1000 T1000
G1 X26.482 Y-26.002
; end travel
M204 P1000 T1500
G1 Z45.8
G1 E1.000000 F2100
;WIDTH:0.295742
M106 S255
G1 F1200
G1 X26.891 Y-25.593 E0.01219
G1 X26.891 Y-25.229 E0.00767
G1 X26.229 Y-25.891 E0.01973
G1 X25.865 Y-25.891 E0.00766
G1 X26.891 Y-24.865 E0.03057
G1 X26.891 Y-24.502 E0.00766
G1 X25.502 Y-25.891 E0.0414
G1 X25.138 Y-25.891 E0.00767
G1 X26.891 Y-24.138 E0.05223
G1 X26.891 Y-23.775 E0.00767
G1 X24.775 Y-25.891 E0.06307
G1 X24.411 Y-25.891 E0.00766
G1 X26.891 Y-23.411 E0.07391
G1 X26.891 Y-23.048 E0.00766
G1 X24.048 Y-25.891 E0.08474
G1 X23.684 Y-25.891 E0.00766
G1 X26.891 Y-22.684 E0.09558
G1 X26.891 Y-22.32 E0.00766
G1 X23.32 Y-25.891 E0.10642
G1 X22.957 Y-25.891 E0.00766
G1 X26.891 Y-21.957 E0.11725
G1 X26.891 Y-21.593 E0.00766
G1 X22.593 Y-25.891 E0.12808
G1 X22.23 Y-25.891 E0.00766
G1 X26.891 Y-21.23 E0.13892
G1 X26.891 Y-20.866 E0.00766
G1 X21.866 Y-25.891 E0.14975
G1 X21.503 Y-25.891 E0.00766
G1 X26.891 Y-20.503 E0.16059
G1 X26.891 Y-20.139 E0.00766
G1 X21.139 Y-25.891 E0.17142
G1 X20.775 Y-25.891 E0.00766
G1 X26.784 Y-19.882 E0.17907
G1 X26.554 Y-19.749 E0.00561
G1 X20.412 Y-25.891 E0.18304
G1 X20.048 Y-25.891 E0.00766
G1 X26.323 Y-19.616 E0.187
G1 X26.093 Y-19.483 E0.00561
G1 X19.685 Y-25.891 E0.19097
G1 X19.321 Y-25.891 E0.00766
G1 X25.862 Y-19.35 E0.19494
G1 X25.632 Y-19.217 E0.00561
G1 X18.958 Y-25.891 E0.1989
G1 X18.594 Y-25.891 E0.00766
G1 X25.401 Y-19.084 E0.20286
G1 X25.171 Y-18.951 E0.00561
G1 X18.231 Y-25.891 E0.20684
G1 X17.867 Y-25.891 E0.00766
G1 X24.94 Y-18.818 E0.21079
G1 X24.71 Y-18.685 E0.00561
G1 X17.503 Y-25.891 E0.21477
G1 X17.14 Y-25.891 E0.00766
G1 X24.479 Y-18.552 E0.21873
G1 X24.249 Y-18.419 E0.00561
G1 X16.776 Y-25.891 E0.22269
G1 X16.413 Y-25.891 E0.00766
G1 X24.018 Y-18.285 E0.22666
G1 X23.788 Y-18.152 E0.00561
G1 X16.049 Y-25.891 E0.23063
G1 X15.686 Y-25.891 E0.00766
G1 X23.557 Y-18.019 E0.23459
G1 X23.327 Y-17.886 E0.00561
G1 X15.322 Y-25.891 E0.23856
G1 X14.958 Y-25.891 E0.00766
G1 X23.096 Y-17.753 E0.24253
G1 X22.866 Y-17.62 E0.00561
G1 X14.595 Y-25.891 E0.24649
G1 X14.231 Y-25.891 E0.00766
G1 X22.635 Y-17.487 E0.25045
G1 X22.405 Y-17.354 E0.00561
G1 X13.868 Y-25.891 E0.25442
G1 X13.504 Y-25.891 E0.00767
G1 X22.174 Y-17.221 E0.25838
G1 X21.944 Y-17.088 E0.00561
G1 X13.141 Y-25.891 E0.26235
G1 X12.777 Y-25.891 E0.00767
G1 X21.713 Y-16.955 E0.26632
G1 X21.483 Y-16.822 E0.0056
G1 X12.413 Y-25.891 E0.27029
G1 X12.05 Y-25.891 E0.00766
G1 X21.252 Y-16.689 E0.27425
G1 X21.022 Y-16.555 E0.00561
G1 X11.686 Y-25.891 E0.27822
G1 X11.323 Y-25.891 E0.00766
G1 X20.792 Y-16.422 E0.28218
G1 X20.561 Y-16.289 E0.00561
G1 X10.959 Y-25.891 E0.28615
G1 X10.596 Y-25.891 E0.00766
G1 X20.331 Y-16.156 E0.29011
G1 X20.1 Y-16.023 E0.00561
G1 X10.232 Y-25.891 E0.29408
G1 X9.869 Y-25.891 E0.00766
G1 X19.87 Y-15.89 E0.29805
G1 X19.639 Y-15.757 E0.00561
G1 X9.505 Y-25.891 E0.30201
G1 X9.141 Y-25.891 E0.00766
G1 X19.409 Y-15.624 E0.30598
G1 X19.178 Y-15.491 E0.00561
G1 X8.778 Y-25.891 E0.30994
G1 X8.414 Y-25.891 E0.00766
G1 X18.948 Y-15.358 E0.31391
G1 X18.717 Y-15.225 E0.00561
G1 X8.051 Y-25.891 E0.31787
G1 X7.687 Y-25.891 E0.00766
G1 X18.487 Y-15.092 E0.32185
G1 X18.256 Y-14.959 E0.0056
G1 X7.324 Y-25.891 E0.32581
G1 X6.96 Y-25.891 E0.00766
G1 X18.026 Y-14.826 E0.32977
G1 X17.795 Y-14.692 E0.00561
G1 X6.596 Y-25.891 E0.33374
G1 X6.233 Y-25.891 E0.00766
G1 X17.565 Y-14.559 E0.33771
G1 X17.334 Y-14.426 E0.0056
G1 X5.869 Y-25.891 E0.34167
G1 X5.506 Y-25.891 E0.00767
G1 X17.104 Y-14.293 E0.34563
G1 X16.873 Y-14.16 E0.00561
G1 X5.142 Y-25.891 E0.3496
G1 X4.779 Y-25.891 E0.00766
G1 X16.643 Y-14.027 E0.35357
G1 X16.412 Y-13.894 E0.00561
G1 X4.415 Y-25.891 E0.35753
G1 X4.052 Y-25.891 E0.00766
G1 X16.182 Y-13.761 E0.3615
G1 X15.951 Y-13.628 E0.00561
G1 X3.688 Y-25.891 E0.36546
G1 X3.324 Y-25.891 E0.00767
G1 X15.721 Y-13.495 E0.36943
G1 X15.49 Y-13.362 E0.0056
G1 X2.961 Y-25.891 E0.3734
G1 X2.597 Y-25.891 E0.00766
G1 X15.26 Y-13.229 E0.37736
G1 X15.029 Y-13.096 E0.00561
G1 X2.234 Y-25.891 E0.38133
G1 X1.87 Y-25.891 E0.00766
G1 X14.799 Y-12.962 E0.3853
G1 X14.568 Y-12.829 E0.0056
G1 X1.507 Y-25.891 E0.38926
G1 X1.143 Y-25.891 E0.00766
G1 X14.338 Y-12.696 E0.39323
G1 X14.107 Y-12.563 E0.00561
G1 X0.779 Y-25.891 E0.39719
G1 X0.416 Y-25.891 E0.00766
G1 X13.877 Y-12.43 E0.40116
G1 X13.646 Y-12.297 E0.00561
G1 X0.052 Y-25.891 E0.40512
G1 X-0.311 Y-25.891 E0.00766
G1 X13.416 Y-12.164 E0.40909
G1 X13.185 Y-12.031 E0.00561
G1 X-0.675 Y-25.891 E0.41305
G1 X-1.038 Y-25.891 E0.00766
G1 X12.955 Y-11.898 E0.41702
G1 X12.724 Y-11.765 E0.00561
G1 X-1.402 Y-25.891 E0.42099
G1 X-1.766 Y-25.891 E0.00766
G1 X12.494 Y-11.632 E0.42495
G1 X12.263 Y-11.499 E0.00561
G1 X-2.129 Y-25.891 E0.42892
G1 X-2.493 Y-25.891 E0.00766
G1 X12.033 Y-11.366 E0.43288
G1 X11.802 Y-11.233 E0.00561
G1 X-2.856 Y-25.891 E0.43685
G1 X-3.22 Y-25.891 E0.00766
G1 X11.572 Y-11.099 E0.44082
G1 X11.341 Y-10.966 E0.0056
G1 X-3.583 Y-25.891 E0.44478
G1 X-3.947 Y-25.891 E0.00767
G1 X11.111 Y-10.833 E0.44874
G1 X10.88 Y-10.7 E0.00561
G1 X-4.31 Y-25.891 E0.45271
G1 X-4.674 Y-25.891 E0.00766
G1 X10.65 Y-10.567 E0.45668
G1 X10.419 Y-10.434 E0.00561
G1 X-5.038 Y-25.891 E0.46065
G1 X-5.401 Y-25.891 E0.00766
G1 X10.189 Y-10.301 E0.46461
G1 X9.958 Y-10.168 E0.00561
G1 X-5.765 Y-25.891 E0.46857
G1 X-6.128 Y-25.891 E0.00766
G1 X9.728 Y-10.035 E0.47254
G1 X9.497 Y-9.902 E0.00561
G1 X-6.492 Y-25.891 E0.47651
G1 X-6.855 Y-25.891 E0.00766
G1 X9.267 Y-9.769 E0.48047
G1 X9.036 Y-9.636 E0.00561
G1 X-7.219 Y-25.891 E0.48444
G1 X-7.583 Y-25.891 E0.00766
G1 X8.806 Y-9.503 E0.48841
G1 X8.575 Y-9.369 E0.00561
G1 X-7.946 Y-25.891 E0.49237
G1 X-8.31 Y-25.891 E0.00766
G1 X8.345 Y-9.236 E0.49633
G1 X8.115 Y-9.103 E0.00561
G1 X-8.673 Y-25.891 E0.5003
G1 X-9.037 Y-25.891 E0.00767
G1 X7.884 Y-8.97 E0.50426
G1 X7.654 Y-8.837 E0.00561
G1 X-9.4 Y-25.891 E0.50824
G1 X-9.764 Y-25.891 E0.00766
G1 X6.561 Y-9.566 E0.48651
G1 X6.29 Y-9.756 E0.00697
G1 X5.602 Y-10.162 E0.01685
G1 X-10.128 Y-25.891 E0.46875
G1 X-10.491 Y-25.891 E0.00767
G1 X4.868 Y-10.532 E0.45772
G1 X4.808 Y-10.562 E0.0014
G1 X4.235 Y-10.802 E0.0131
G1 X-10.855 Y-25.891 E0.44969
G1 X-10.891 Y-25.891 E0.00076
G1 X-10.891 Y-25.564 E0.0069
G1 X3.67 Y-11.003 E0.43393
G1 X3.241 Y-11.144 E0.00952
G1 X3.141 Y-11.169 E0.00217
G1 X-10.891 Y-25.2 E0.41817
G1 X-10.891 Y-24.837 E0.00766
G1 X2.655 Y-11.291 E0.40369
G1 X2.426 Y-11.348 E0.00497
G1 X2.191 Y-11.391 E0.00504
G1 X-10.891 Y-24.473 E0.38987
G1 X-10.891 Y-24.11 E0.00766
G1 X1.747 Y-11.472 E0.37663
G1 X1.625 Y-11.494 E0.00262
G1 X1.333 Y-11.522 E0.00618
G1 X-10.891 Y-23.746 E0.36429
G1 X-10.891 Y-23.383 E0.00766
G1 X0.93 Y-11.562 E0.35228
G1 X0.703 Y-11.584 E0.0048
G1 X0.54 Y-11.588 E0.00345
G1 X-10.891 Y-23.019 E0.34066
G1 X-10.891 Y-22.656 E0.00766
G1 X0.166 Y-11.598 E0.32953
G1 X-0.096 Y-11.605 E0.00554
G1 X-0.2 Y-11.601 E0.00218
G1 X-10.891 Y-22.292 E0.31862
G1 X-10.891 Y-21.928 E0.00766
G1 X-0.549 Y-11.586 E0.30822
G1 X-0.897 Y-11.571 E0.00736
G1 X-10.891 Y-21.565 E0.29782
G1 X-10.891 Y-21.201 E0.00766
G1 X-1.226 Y-11.536 E0.28805
G1 X-1.55 Y-11.496 E0.00688
G1 X-10.891 Y-20.838 E0.27839
G1 X-10.891 Y-20.474 E0.00766
G1 X-1.868 Y-11.451 E0.2689
G1 X-2.173 Y-11.392 E0.00653
G1 X-10.891 Y-20.111 E0.25982
G1 X-10.891 Y-19.747 E0.00767
G1 X-2.477 Y-11.333 E0.25075
G1 X-2.625 Y-11.304 E0.00317
G1 X-2.773 Y-11.265 E0.00322
G1 X-10.891 Y-19.383 E0.24194
G1 X-10.891 Y-19.02 E0.00766
G1 X-3.06 Y-11.189 E0.23338
G1 X-3.347 Y-11.112 E0.00627
G1 X-10.891 Y-18.656 E0.22482
G1 X-10.891 Y-18.293 E0.00766
G1 X-3.62 Y-11.022 E0.21668
G1 X-3.889 Y-10.927 E0.006
G1 X-10.891 Y-17.929 E0.20867
G1 X-10.891 Y-17.566 E0.00767
G1 X-4.158 Y-10.832 E0.20066
G1 X-4.227 Y-10.808 E0.00154
G1 X-4.411 Y-10.722 E0.00428
G1 X-10.891 Y-17.202 E0.19312
G1 X-10.891 Y-16.838 E0.00766
G1 X-4.658 Y-10.606 E0.18575
G1 X-4.906 Y-10.49 E0.00576
G1 X-10.891 Y-16.475 E0.17836
G1 X-10.891 Y-16.111 E0.00766
G1 X-5.154 Y-10.374 E0.17099
G1 X-5.401 Y-10.258 E0.00577
G1 X-10.891 Y-15.748 E0.16361
G1 X-10.891 Y-15.384 E0.00766
G1 X-5.648 Y-10.141 E0.15625
G1 X-5.874 Y-10.003 E0.00557
G1 X-10.891 Y-15.021 E0.14952
G1 X-10.891 Y-14.657 E0.00767
G1 X-6.099 Y-9.865 E0.1428
G1 X-6.325 Y-9.727 E0.00557
G1 X-10.891 Y-14.294 E0.13608
G1 X-10.891 Y-13.93 E0.00766
G1 X-6.541 Y-9.58 E0.12965
G1 X-6.752 Y-9.428 E0.00549
G1 X-10.891 Y-13.566 E0.12334
G1 X-10.891 Y-13.203 E0.00767
G1 X-6.964 Y-9.276 E0.11703
G1 X-7.127 Y-9.159 E0.00422
G1 X-7.173 Y-9.121 E0.00126
G1 X-10.891 Y-12.839 E0.11081
G1 X-10.891 Y-12.476 E0.00767
G1 X-7.372 Y-8.956 E0.10488
G1 X-7.571 Y-8.792 E0.00544
G1 X-10.891 Y-12.112 E0.09896
G1 X-10.891 Y-11.749 E0.00766
G1 X-7.768 Y-8.625 E0.09308
G1 X-7.954 Y-8.448 E0.00542
G1 X-10.891 Y-11.385 E0.08754
G1 X-10.891 Y-11.021 E0.00766
G1 X-8.14 Y-8.27 E0.08198
G1 X-8.246 Y-8.169 E0.0031
G1 X-8.32 Y-8.087 E0.00233
G1 X-10.891 Y-10.658 E0.07662
G1 X-10.891 Y-10.294 E0.00766
G1 X-8.492 Y-7.895 E0.07149
G1 X-8.664 Y-7.704 E0.00543
G1 X-10.891 Y-9.931 E0.06637
G1 X-10.891 Y-9.567 E0.00766
G1 X-8.836 Y-7.512 E0.06125
G1 X-9.008 Y-7.32 E0.00542
G1 X-10.891 Y-9.204 E0.05613
G1 X-10.891 Y-8.84 E0.00766
G1 X-9.161 Y-7.11 E0.05155
G1 X-9.314 Y-6.9 E0.00548
G1 X-10.891 Y-8.477 E0.047
G1 X-10.891 Y-8.113 E0.00766
G1 X-9.467 Y-6.689 E0.04244
G1 X-9.62 Y-6.478 E0.00548
G1 X-10.891 Y-7.749 E0.03789
G1 X-10.891 Y-7.386 E0.00766
G1 X-9.77 Y-6.265 E0.03342
G1 X-9.901 Y-6.032 E0.00562
G1 X-10.891 Y-7.022 E0.0295
G1 X-10.891 Y-6.659 E0.00766
G1 X-10.032 Y-5.8 E0.02559
G1 X-10.164 Y-5.568 E0.00562
G1 X-10.891 Y-6.295 E0.02168
G1 X-10.891 Y-5.932 E0.00766
G1 X-10.295 Y-5.335 E0.01777
G1 X-10.426 Y-5.103 E0.00562
G1 X-10.891 Y-5.568 E0.01387
G1 X-10.891 Y-5.204 E0.00767
G1 X-10.535 Y-4.848 E0.01061
G1 X-10.644 Y-4.594 E0.00583
G1 X-10.891 Y-4.841 E0.00735
G1 X-10.891 Y-4.477 E0.00766
G1 X-10.754 Y-4.34 E0.0041
G1 X-10.863 Y-4.086 E0.00583
G1 X-11.002 Y-4.224 E0.00413
M106 S255
; acceleration to travel
G1 X-11.045 Y-3.372 F9000
; decel to extrusion
M204 P1000 T1000
G1 X-11.075 Y-2.805
; end travel
;TYPE:Internal perimeter
;WIDTH:0.299999
M106 S255
G1 F1200
M204 P1000 T1500
G1 X-10.736 Y-3.892 E0.02435
G1 X-10.703 Y-3.984 E0.00209
G1 X-10.252 Y-5.03 E0.02435
G1 X-10.209 Y-5.118 E0.00208
G1 X-9.648 Y-6.109 E0.02435
G1 X-9.596 Y-6.191 E0.00209
G1 X-8.931 Y-7.117 E0.02435
G1 X-8.87 Y-7.193 E0.00208
G1 X-8.11 Y-8.04 E0.02435
G1 X-7.613 Y-8.513 E0.01466
G1 X-7.01 Y-9.012 E0.01671
G1 X-6.342 Y-9.494 E0.01761
G1 X-5.62 Y-9.942 E0.01818
G1 X-4.91 Y-10.307 E0.01706
G1 X-4.154 Y-10.635 E0.01762
G1 X-3.357 Y-10.916 E0.01806
G1 X-2.581 Y-11.122 E0.01717
G1 X-1.771 Y-11.279 E0.01763
G1 X-0.938 Y-11.382 E0.01793
G1 X-0.131 Y-11.417 E0.01729
G1 X0.694 Y-11.396 E0.01763
G1 X1.524 Y-11.318 E0.01782
G1 X2.326 Y-11.178 E0.0174
