; generated by SuperSlicer 2.5.59.13 on 2025-10-29 at 09:56:10 UTC

; 

; external perimeters extrusion width = 0.30mm
; perimeters extrusion width = 0.30mm
; infill extrusion width = 0.30mm
; solid infill extrusion width = 0.30mm
; top infill extrusion width = 0.30mm


M106 S255
M140 S50 ; set bed temperature
G10 P0 R210 ; sets the standby temperature
G10 P0 S210 ; set temperature
;TYPE:Custom
G1 E1 F1800
G21 ; set units to millimeters
G90 ; use absolute coordinates
M83 ; use relative distances for extrusion
; FILAMENT_START_GCODE
G10 P0 S210 ; set temperature
M116 ; wait for temperature to be reached
M190 S50 ; set bed temperature and wait for it to be reached
;LAYER_CHANGE
;Z:37.8
;HEIGHT:37.799999
; BEFORE_LAYER_CHANGE
;37.8
G92 E0

G1 E-1.000000 F2100
G1 Z0.2 F9000
G1 Z37.8
; AFTER_LAYER_CHANGE
;37.8
G1 Z38.000000
M204 P1000 T1000
G1 X-10.613 Y-25.014
G1 Z37.8
G1 E1.000000 F2100
;TYPE:External perimeter
;WIDTH:0.299999
;HEIGHT:0.2
M106 S255
G1 F600
G1 X-10.34 Y-25.306 E0.00856
G1 X-10.272 Y-25.411 E0.00265
M106 S255
;WIDTH:0.322318
M106 S255
G1 X-10.204 Y-25.515 E0.00289
M106 S255
;WIDTH:0.344637
M106 S255
G1 X-10.137 Y-25.619 E0.00311
M106 S255
;WIDTH:0.366956
M106 S255
G1 X-10.069 Y-25.723 E0.00335
G1 X-9.995 Y-25.775 E0.00244
G1 X-10.007 Y-25.864 E0.00243
M106 S255
M106 S255
G1 X-10.024 Y-25.992 E0.00349
G1 X-10.288 Y-25.966 E0.00714
G1 X-10.413 Y-25.899 E0.00383
M106 S255
;WIDTH:0.326574
M106 S255
G1 X-10.539 Y-25.832 E0.00336
G1 X-10.745 Y-25.837 E0.00487
M106 S255
;WIDTH:0.299999
M106 S255
G1 X-10.952 Y-25.842 E0.00441
G1 X-10.952 Y-25.129 E0.01526
G1 X-10.669 Y-25.033 E0.00637
M106 S255
;WIPE_START
G1 X-10.292 Y-25.064 F9000
;WIPE_END
G1 X-10.567 Y-25.49
;TYPE:Internal perimeter
;WIDTH:0.453184
M106 S255
G1 F600
G1 X-10.592 Y-25.446 E0.00175
G1 X-10.644 Y-25.446 E0.00175
G1 X-10.669 Y-25.49 E0.00175
G1 X-10.644 Y-25.535 E0.00175
G1 X-10.592 Y-25.535 E0.00175
M106 S255
;LAYER_CHANGE
;Z:38.000000
;HEIGHT:0.200001
; BEFORE_LAYER_CHANGE
;38
G92 E0

G1 E-0.9 F2100
;WIPE_START
G1 F7200
G1 X-10.567 Y-25.49 E-0.01421
G1 X-10.592 Y-25.446 E-0.01421
G1 X-10.644 Y-25.446 E-0.01421
G1 X-10.669 Y-25.49 E-0.01421
G1 X-10.644 Y-25.535 E-0.01421
G1 X-10.592 Y-25.535 E-0.01421
;WIPE_END
G1 E-0.01474 F2100
G1 Z38.000000 F9000
; AFTER_LAYER_CHANGE
;38
G1 X-10.8 Y-25.8
G1 E1.000000 F2100
;WIDTH:0.299999
M106 S255
G1 F600
G1 X-10.804 Y-24.772 E0.02196
G1 X-10.375 Y-25.246 E0.01367
G1 X-9.771 Y-25.804 E0.01757
G1 X-10.515 Y-25.804 E0.01591
G1 X-10.74 Y-25.801 E0.0048
M106 S255
G1 X-11.061 Y-26.028 F9000
M106 S255
G1 F600
G1 X-11.061 Y-24.267 E0.03765
G1 X-11.015 Y-24.091 E0.0039
G1 X-10.695 Y-24.507 E0.01121
G1 X-10.184 Y-25.073 E0.0163
G1 X-9.545 Y-25.663 E0.0186
G1 X-8.999 Y-26.057 E0.01439
G1 X-9.594 Y-26.061 E0.01274
G1 X-10.817 Y-26.061 E0.02614
G1 X-11.002 Y-26.036 E0.00398
M106 S255
G1 X-11.318 Y-26.253 F9000
M106 S255
G1 F600
G1 X-11.318 Y-24.184 E0.04422
G1 X-11.227 Y-23.91 E0.00618
G1 X-11.254 Y-23.382 E0.01131
G1 X-11.188 Y-23.349 E0.00158
G1 X-10.927 Y-23.783 E0.01083
G1 X-10.491 Y-24.35 E0.01529
G1 X-9.994 Y-24.901 E0.01586
G1 X-9.371 Y-25.473 E0.01809
G1 X-8.473 Y-26.115 E0.02358
G1 X-8.279 Y-26.227 E0.0048
G1 X-8.48 Y-26.302 E0.0046
G1 X-9.174 Y-26.318 E0.01485
G1 X-10.834 Y-26.318 E0.03548
G1 X-11.259 Y-26.261 E0.00915
M106 S255
G1 X-11.575 Y-26.478 F9000
;TYPE:External perimeter
M106 S255
G1 F600
G1 X-11.575 Y-24.084 E0.05117
G1 X-11.499 Y-24.002 E0.00239
G1 X-11.511 Y-23.418 E0.0125
G1 X-11.511 Y-23.178 E0.00512
G1 X-11.279 Y-23.105 E0.00521
G1 X-11.214 Y-22.813 E0.00639
G1 X-10.941 Y-23.261 E0.01122
G1 X-10.492 Y-23.928 E0.01718
G1 X-9.803 Y-24.728 E0.02256
G1 X-9.197 Y-25.284 E0.01758
G1 X-8.324 Y-25.905 E0.02291
G1 X-7.853 Y-26.171 E0.01158
G1 X-7.709 Y-26.26 E0.0036
G1 X-8.288 Y-26.521 E0.01358
G1 X-8.525 Y-26.56 E0.00514
G1 X-9.171 Y-26.575 E0.01382
G1 X-10.852 Y-26.575 E0.03591
G1 X-11.516 Y-26.486 E0.01433
M106 S255
;WIPE_START
G1 X-11.375 Y-26.165 F9000
;WIPE_END
;LAYER_CHANGE
;Z:38.2
;HEIGHT:0.200001
; BEFORE_LAYER_CHANGE
;38.2
G92 E0

G1 E-0.9 F2100
;WIPE_START
G1 F7200
G1 X-11.593 Y-26.43 E-0.095
;WIPE_END
G1 E-0.005 F2100
G1 Z38.2 F9000
; AFTER_LAYER_CHANGE
;38.2
G1 Z38.4
; acceleration to travel
M204 P1000 T1500
G1 X-9.252 Y1.581
; decel to extrusion
M204 P1000 T1000
G1 X-8.689 Y8.323
; end travel
M204 P1000 T1500
G1 Z38.2
G1 E1.000000 F2100
;WIDTH:0.459938
M106 S255
G1 F480
G1 X-8.288 Y8.728 E0.01976
G1 X-8.241 Y8.784 E0.00253
M106 S255
;WIDTH:0.439259
M106 S255
G1 X-8.194 Y8.839 E0.0024
M106 S255
;WIDTH:0.41665
M106 S255
G1 X-8.146 Y8.895 E0.00227
M106 S255
;WIDTH:0.394041
M106 S255
G1 X-8.099 Y8.95 E0.00213
M106 S255
;WIDTH:0.371432
M106 S255
G1 X-8.051 Y9.006 E0.00199
G1 X-7.987 Y9.051 E0.00216
M106 S255
;WIDTH:0.394201
M106 S255
G1 X-7.922 Y9.096 E0.0023
M106 S255
;WIDTH:0.41697
M106 S255
G1 X-7.858 Y9.142 E0.00246
M106 S255
;WIDTH:0.439738
M106 S255
G1 X-7.793 Y9.187 E0.0026
G1 X-7.728 Y9.212 E0.00231
M106 S255
;WIDTH:0.468046
M106 S255
G1 X-7.662 Y9.237 E0.00247
M106 S255
M204 P1000 T1000
G1 X-7.072 Y9.865 F9000
;WIDTH:0.38292
M106 S255
G1 F480
G1 X-7.135 Y9.902 E0.00208
G1 X-7.072 Y9.938 E0.00208
G1 X-7.05 Y9.902 E0.0012
M106 S255
G1 E-0.9 F2100
;WIPE_START
G1 F7200
G1 X-7.072 Y9.938 E-0.01178
G1 X-7.135 Y9.902 E-0.02039
G1 X-7.072 Y9.865 E-0.0204
;WIPE_END
G1 E-0.04743 F2100
G1 Z38.4 F9000
; acceleration to travel
M204 P1000 T1500
G1 X-8.953 Y8.023
; decel to extrusion
M204 P1000 T1000
G1 X-9.406 Y7.58
; end travel
M204 P1000 T1500
G1 Z38.2
G1 E1.000000 F2100
;WIDTH:0.36894
M106 S255
G1 F480
G1 X-9.436 Y7.527 E0.00167
M106 S255
;WIDTH:0.392904
M106 S255
G1 X-9.467 Y7.473 E0.00179
M106 S255
;WIDTH:0.416867
M106 S255
G1 X-9.498 Y7.42 E0.00191
M106 S255
;WIDTH:0.440831
M106 S255
G1 X-9.528 Y7.367 E0.00203
M106 S255
;WIDTH:0.464794
M106 S255
G1 X-9.559 Y7.314 E0.00216
G1 X-9.72 Y7.082 E0.00989
M106 S255
;WIDTH:0.490422
M106 S255
G1 X-9.88 Y6.85 E0.01049
G1 X-9.889 Y6.824 E0.00103
M106 S255
;WIDTH:0.454454
M106 S255
G1 X-9.907 Y6.771 E0.00191
M106 S255
;WIDTH:0.407802
M106 S255
G1 X-9.925 Y6.718 E0.00169
G1 X-10.099 Y6.338 E0.0127
G1 X-10.131 Y6.308 E0.00133
M106 S255
;WIDTH:0.43599
M106 S255
G1 X-10.162 Y6.278 E0.00142
M106 S255
;WIDTH:0.464177
M106 S255
G1 X-10.194 Y6.248 E0.00153
M106 S255
;WIDTH:0.492364
M106 S255
G1 X-10.226 Y6.218 E0.00163
M106 S255
;WIDTH:0.520551
M106 S255
G1 X-10.257 Y6.188 E0.00173
M106 S255
;WIDTH:0.544566
M106 S255
G1 X-10.289 Y6.158 E0.00182
G1 X-10.549 Y5.718 E0.0213
M106 S255
; acceleration to travel
G1 X-10.881 Y5.026 F9000
; decel to extrusion
M204 P1000 T1000
G1 X-11.103 Y4.564
; end travel
;WIDTH:0.520146
M106 S255
G1 F480
M204 P1000 T1500
G1 X-11.258 Y4.162 E0.01712
M106 S255
M204 P1000 T1000
G1 X-11.479 Y3.194 F9000
;WIDTH:0.305352
M106 S255
G1 F480
G1 X-11.495 Y3.223 E0.00071
G1 X-11.545 Y3.194 E0.00124
G1 X-11.495 Y3.166 E0.00124
M106 S255
; acceleration to travel
M204 P1000 T1500
G1 X-11.715 Y2.495 F9000
; decel to extrusion
M204 P1000 T1000
G1 X-11.862 Y2.047
; end travel
;WIDTH:0.38292
M106 S255
G1 F480
M204 P1000 T1500
G1 X-11.926 Y1.822 E0.00662
G1 X-11.88 Y1.724 E0.00306
G1 X-11.854 Y1.098 E0.01772
G1 X-11.863 Y-0.252 E0.03816
G1 X-11.863 Y-15.116 E0.42022
M106 S255
G1 E-0.9 F2100
;WIPE_START
G1 F7200
G1 X-11.863 Y-14.773 E-0.095
;WIPE_END
G1 E-0.005 F2100
G1 Z38.4 F9000
; acceleration to travel
G1 X-11.103 Y-22.48
; decel to extrusion
M204 P1000 T1000
G1 X-10.886 Y-24.682
; end travel
M204 P1000 T1500
G1 Z38.2
G1 E1.000000 F2100
;TYPE:Internal infill
;WIDTH:0.3
M106 S255
G1 F3600
G1 X-10.556 Y-24.352 E0.00997
G1 X-9.344 Y-25.564 E0.03664
G1 X-9.257 Y-25.477 E0.00264
M106 S255
; acceleration to travel
G1 X-10.41 Y-25.858 F9000
; decel to extrusion
M204 P1000 T1000
G1 X-11.079 Y-26.079
; end travel
;TYPE:Internal perimeter
;WIDTH:0.299999
M106 S255
G1 F1668.2745
M204 P1000 T1500
G1 X-11.079 Y-23.054 E0.06465
G1 X-10.966 Y-23.245 E0.00474
G1 X-10.364 Y-24.094 E0.02225
G1 X-9.817 Y-24.705 E0.01751
G1 X-9.115 Y-25.345 E0.02031
G1 X-8.329 Y-25.917 E0.02078
G1 X-8.055 Y-26.079 E0.00681
G1 X-11.019 Y-26.079 E0.06335
M106 S255
M204 P1000 T1000
G1 X-11.336 Y-26.336 F9000
M106 S255
G1 F2159.9983
G1 X-11.336 Y-21.984 E0.09303
G1 X-11.103 Y-22.48 E0.01173
G1 X-10.794 Y-23.037 E0.01362
G1 X-10.757 Y-23.096 E0.00149
G1 X-10.154 Y-23.945 E0.02225
G1 X-9.627 Y-24.532 E0.01685
G1 X-8.943 Y-25.154 E0.01977
G1 X-8.179 Y-25.708 E0.02017
G1 X-7.37 Y-26.174 E0.01997
G1 X-7.01 Y-26.336 E0.00843
G1 X-11.276 Y-26.336 E0.09119
M106 S255
G1 X-11.593 Y-26.593 F9000
M106 S255
G1 F2700
G1 X-11.593 Y-20.558 E0.129
G1 X-11.261 Y-21.533 E0.02201
G1 X-10.87 Y-22.371 E0.01976
G1 X-10.569 Y-22.912 E0.01324
G1 X-10.547 Y-22.947 E0.00089
G1 X-9.944 Y-23.797 E0.02226
G1 X-9.437 Y-24.359 E0.01619
G1 X-8.771 Y-24.963 E0.01923
G1 X-8.029 Y-25.499 E0.01956
G1 X-7.242 Y-25.951 E0.0194
G1 X-6.583 Y-26.242 E0.0154
G1 X-5.817 Y-26.513 E0.01736
G1 X-5.645 Y-26.593 E0.00406
G1 X-11.533 Y-26.593 E0.12585
M106 S255
G1 E-0.9 F2100
;WIPE_START
G1 F7200
G1 X-11.19 Y-26.593 E-0.095
;WIPE_END
G1 E-0.005 F2100
G1 Z38.4 F9000
; acceleration to travel
M204 P1000 T1500
G1 X-6.172 Y-26.712
; decel to extrusion
M204 P1000 T1000
G1 X-4.964 Y-26.74
; end travel
M204 P1000 T1500
G1 Z38.2
G1 E1.000000 F2100
;TYPE:External perimeter
;WIDTH:0.519724
M106 S255
G1 F480
G1 X-4.817 Y-26.752 E0.00584
M106 S255
;WIDTH:0.492952
M106 S255
G1 X-4.67 Y-26.763 E0.00551
M106 S255
;WIDTH:0.46618
M106 S255
G1 X-4.524 Y-26.775 E0.00519
M106 S255
;WIDTH:0.439408
M106 S255
G1 X-4.377 Y-26.786 E0.00485
M106 S255
;WIDTH:0.412636
M106 S255
G1 X-4.23 Y-26.798 E0.00453
M106 S255
;WIDTH:0.385864
M106 S255
G1 X-4.083 Y-26.809 E0.0042
M106 S255
;WIDTH:0.359092
M106 S255
G1 X-3.936 Y-26.82 E0.00387
G1 X-3.332 Y-26.814 E0.01588
G1 X-2.762 Y-26.834 E0.015
M106 S255
;WIDTH:0.38292
M106 S255
G1 X-2.192 Y-26.855 E0.01613
G1 X-1.423 Y-26.859 E0.02174
M106 S255
G1 E-0.9 F2100
;WIPE_START
G1 F7200
G1 X-1.766 Y-26.857 E-0.095
;WIPE_END
G1 E-0.005 F2100
G1 Z38.4 F9000
; acceleration to travel
G1 X-9.894 Y-26.851
; decel to extrusion
M204 P1000 T1000
G1 X-11.85 Y-26.85
; end travel
M204 P1000 T1500
G1 Z38.2
G1 E1.000000 F2100
;WIDTH:0.299999
M106 S255
G1 F480
G1 X-11.85 Y-20.496 E0.13583
G1 X-11.835 Y-20.224 E0.00581
M106 S255
;WIDTH:0.358593
M106 S255
G1 X-11.821 Y-19.953 E0.00714
G1 X-11.81 Y-19.904 E0.00132
M106 S255
;WIDTH:0.384371
M106 S255
G1 X-11.8 Y-19.855 E0.00142
M106 S255
;WIDTH:0.410148
M106 S255
G1 X-11.79 Y-19.806 E0.00153
M106 S255
;WIDTH:0.435925
M106 S255
G1 X-11.779 Y-19.757 E0.00163
M106 S255
;WIDTH:0.461702
M106 S255
G1 X-11.769 Y-19.708 E0.00174
G1 X-11.735 Y-19.735 E0.00154
M106 S255
;WIDTH:0.436418
M106 S255
G1 X-11.7 Y-19.763 E0.00144
M106 S255
;WIDTH:0.411133
M106 S255
G1 X-11.666 Y-19.791 E0.00136
M106 S255
;WIDTH:0.385849
M106 S255
G1 X-11.632 Y-19.818 E0.00126
M106 S255
;WIDTH:0.360564
M106 S255
G1 X-11.597 Y-19.846 E0.00116
M106 S255
;WIDTH:0.335279
M106 S255
G1 X-11.563 Y-19.874 E0.00107
G1 X-11.464 Y-20.153 E0.0072
M106 S255
;WIDTH:0.299999
M106 S255
G1 X-11.364 Y-20.431 E0.00632
G1 X-11.017 Y-21.45 E0.02301
G1 X-10.637 Y-22.262 E0.01916
G1 X-10.337 Y-22.799 E0.01314
G1 X-9.735 Y-23.648 E0.02226
G1 X-9.247 Y-24.186 E0.01553
G1 X-8.598 Y-24.772 E0.01869
G1 X-7.879 Y-25.29 E0.01895
G1 X-7.115 Y-25.728 E0.01882
G1 X-6.48 Y-26.007 E0.01483
G1 X-5.732 Y-26.27 E0.01694
G1 X-5.643 Y-26.324 E0.00224
M106 S255
;WIDTH:0.326298
M106 S255
G1 X-5.553 Y-26.379 E0.00246
M106 S255
;WIDTH:0.352597
M106 S255
G1 X-5.464 Y-26.433 E0.0027
M106 S255
;WIDTH:0.378896
M106 S255
G1 X-5.374 Y-26.488 E0.00293
M106 S255
;WIDTH:0.405194
M106 S255
G1 X-5.285 Y-26.542 E0.00315
M106 S255
;WIDTH:0.431493
M106 S255
G1 X-5.195 Y-26.596 E0.00338
M106 S255
;WIDTH:0.457792
M106 S255
G1 X-5.106 Y-26.651 E0.00361
M106 S255
;WIDTH:0.48409
M106 S255
G1 X-5.016 Y-26.705 E0.00384
M106 S255
;WIDTH:0.501907
M106 S255
G1 X-4.964 Y-26.74 E0.00241
M106 S255
;WIDTH:0.519724
M106 S255
G1 X-5.06 Y-26.752 E0.00385
M106 S255
;WIDTH:0.492259
M106 S255
G1 X-5.157 Y-26.765 E0.00363
M106 S255
;WIDTH:0.464793
M106 S255
G1 X-5.253 Y-26.777 E0.0034
M106 S255
;WIDTH:0.437328
M106 S255
G1 X-5.349 Y-26.789 E0.00319
M106 S255
;WIDTH:0.409862
M106 S255
G1 X-5.446 Y-26.801 E0.00296
M106 S255
;WIDTH:0.382396
M106 S255
G1 X-5.542 Y-26.813 E0.00274
M106 S255
;WIDTH:0.354931
M106 S255
G1 X-5.638 Y-26.826 E0.00252
M106 S255
;WIDTH:0.327465
M106 S255
G1 X-5.735 Y-26.838 E0.0023
M106 S255
;WIDTH:0.299999
M106 S255
G1 X-5.831 Y-26.85 E0.00207
G1 X-11.79 Y-26.85 E0.12738
M106 S255
;WIPE_START
G1 X-11.65 Y-26.504 F9000
;WIPE_END
G1 E-0.9 F2100
;WIPE_START
G1 F7200
G1 X-11.853 Y-26.78 E-0.095
;WIPE_END
G1 E-0.005 F2100
G1 Z38.4 F9000
; acceleration to travel
G1 X-11.785 Y-21.08
; decel to extrusion
M204 P1000 T1000
G1 X-11.769 Y-19.708
; end travel
M204 P1000 T1500
G1 Z38.2
G1 E1.000000 F2100
;WIDTH:0.461702
M106 S255
G1 F480
G1 X-11.779 Y-19.515 E0.00671
M106 S255
;WIDTH:0.435682
M106 S255
G1 X-11.789 Y-19.323 E0.00628
M106 S255
;WIDTH:0.409661
M106 S255
G1 X-11.798 Y-19.131 E0.00588
M106 S255
;WIDTH:0.38364
M106 S255
G1 X-11.808 Y-18.939 E0.00545
M106 S255
G1 E-0.9 F2100
;WIPE_START
G1 F7200
G1 X-11.791 Y-19.281 E-0.095
;WIPE_END
G1 E-0.005 F2100
G1 Z38.4 F9000
; acceleration to travel
G1 X-0.353 Y-25.392
; decel to extrusion
M204 P1000 T1000
G1 X2.4 Y-26.863
; end travel
M204 P1000 T1500
G1 Z38.2
G1 E1.000000 F2100
;WIDTH:0.38292
M106 S255
G1 F480
G1 X12.737 Y-26.863 E0.29222
G1 X13.928 Y-26.888 E0.03368
G1 X14.587 Y-26.928 E0.01868
M106 S255
G1 E-0.9 F2100
;WIPE_START
G1 F7200
G1 X14.245 Y-26.907 E-0.095
;WIPE_END
G1 E-0.005 F2100
G1 Z38.4 F9000
; acceleration to travel
G1 X8.661 Y2.269
; decel to extrusion
M204 P1000 T1000
G1 X7.317 Y9.291
; end travel
M204 P1000 T1500
G1 Z38.2
G1 E1.000000 F2100
M106 S255
G1 F480
G1 X7.253 Y9.328 E0.00208
G1 X7.317 Y9.365 E0.00208
G1 X7.338 Y9.328 E0.0012
M106 S255
;LAYER_CHANGE
;Z:38.4
;HEIGHT:0.200001
; BEFORE_LAYER_CHANGE
;38.4
G92 E0

G1 E-0.9 F2100
;WIPE_START
G1 F7200
G1 X7.317 Y9.365 E-0.01178
G1 X7.253 Y9.328 E-0.02039
G1 X7.317 Y9.291 E-0.0204
;WIPE_END
G1 E-0.04743 F2100
G1 Z38.4 F9000
; AFTER_LAYER_CHANGE
;38.4
G1 Z38.6
; acceleration to travel
G1 X-4.538 Y9.166
; decel to extrusion
M204 P1000 T1000
G1 X-7.546 Y9.134
; end travel
M204 P1000 T1500
G1 Z38.4
G1 E1.000000 F2100
;TYPE:Internal perimeter
;WIDTH:0.336284
M106 S255
G1 F2093.7947
G1 X-8.087 Y8.666 E0.01748
G1 X-8.539 Y8.213 E0.0156
G1 X-9.199 Y7.468 E0.02427
G1 X-9.509 Y7.069 E0.01232
G1 X-9.826 Y6.62 E0.01342
G1 X-10.095 Y6.194 E0.01229
G1 X-10.417 Y5.641 E0.0156
G1 X-10.741 Y5.001 E0.01751
G1 X-11.036 Y4.306 E0.01841
G1 X-11.267 Y3.677 E0.01636
G1 X-11.318 Y3.507 E0.00431
G1 X-11.318 Y4.387 E0.02146
G1 X-11.087 Y4.94 E0.01461
G1 X-10.785 Y5.566 E0.01696
G1 X-10.506 Y6.078 E0.01422
G1 X-10.093 Y6.746 E0.01915
G1 X-9.747 Y7.238 E0.01466
G1 X-9.426 Y7.651 E0.01277
G1 X-9.072 Y8.068 E0.01334
G1 X-8.331 Y8.831 E0.02596
G1 X-7.843 Y9.266 E0.01594
G1 X-7.659 Y9.412 E0.00574
G1 X-7.614 Y9.221 E0.00478
G1 X-7.583 Y9.181 E0.00123
M106 S255
M204 P1000 T1000
G1 X-7.187 Y9.177 F9000
;WIDTH:0.299999
M106 S255
G1 F2436.3191
G1 X-7.095 Y9.141 E0.00211
M106 S255
M106 S255
G1 X-7.909 Y8.459 E0.02271
G1 X-8.343 Y8.02 E0.01318
G1 X-8.988 Y7.292 E0.0208
G1 X-9.601 Y6.462 E0.02206
G1 X-10.002 Y5.819 E0.01619
G1 X-10.272 Y5.334 E0.01187
G1 X-10.495 Y4.88 E0.01081
G1 X-10.781 Y4.203 E0.01571
G1 X-11.008 Y3.584 E0.0141
G1 X-11.153 Y3.094 E0.01092
G1 X-11.203 Y3.049 E0.00144
M106 S255
;WIDTH:0.329254
M106 S255
G1 X-11.254 Y3.004 E0.0016
M106 S255
;WIDTH:0.358508
M106 S255
G1 X-11.304 Y2.96 E0.00176
M106 S255
;WIDTH:0.387762
M106 S255
G1 X-11.354 Y2.915 E0.00193
M106 S255
;WIDTH:0.417016
M106 S255
G1 X-11.405 Y2.871 E0.00209
M106 S255
;WIDTH:0.44627
M106 S255
G1 X-11.455 Y2.826 E0.00226
M106 S255
;WIDTH:0.475524
M106 S255
G1 X-11.505 Y2.782 E0.00242
G1 X-11.518 Y2.846 E0.00236
M106 S255
;WIDTH:0.44627
M106 S255
G1 X-11.53 Y2.91 E0.0022
M106 S255
;WIDTH:0.417016
M106 S255
G1 X-11.543 Y2.975 E0.00205
M106 S255
;WIDTH:0.387762
M106 S255
G1 X-11.555 Y3.039 E0.00188
M106 S255
;WIDTH:0.358508
