; generated by SuperSlicer 2.5.59.13 on 2025-10-29 at 09:55:59 UTC

; 

; external perimeters extrusion width = 0.30mm
; perimeters extrusion width = 0.30mm
; infill extrusion width = 0.30mm
; solid infill extrusion width = 0.30mm
; top infill extrusion width = 0.30mm


M106 S255
M140 S50 ; set bed temperature
G10 P0 R210 ; sets the standby temperature
G10 P0 S210 ; set temperature
;TYPE:Custom
G1 E1 F1800
G21 ; set units to millimeters
G90 ; use absolute coordinates
M83 ; use relative distances for extrusion
; FILAMENT_START_GCODE
G10 P0 S210 ; set temperature
M116 ; wait for temperature to be reached
M190 S50 ; set bed temperature and wait for it to be reached
;LAYER_CHANGE
;Z:20.2
;HEIGHT:20.200001
; BEFORE_LAYER_CHANGE
;20.2
G92 E0

G1 E-1.000000 F2100
G1 Z0.2 F9000
G1 Z20.2
; AFTER_LAYER_CHANGE
;20.2
G1 Z20.4
M204 P1000 T1000
G1 X4.442 Y-10.729
G1 Z20.2
G1 E1.000000 F2100
;TYPE:Solid infill
;WIDTH:0.287392
;HEIGHT:0.2
M106 S255
G1 F1200
G1 X4.118 Y-11.053 E0.0094
G1 X3.257 Y-11.55 E0.02034
G1 X3.87 Y-10.938 E0.01774
G1 X3.326 Y-11.118 E0.01173
G1 X2.397 Y-12.047 E0.0269
G1 X1.537 Y-12.543 E0.02034
G1 X2.838 Y-11.242 E0.03769
G1 X2.356 Y-11.361 E0.01017
G1 X0.677 Y-13.04 E0.04862
G1 X0.137 Y-13.352 E0.01278
G1 X-0.131 Y-13.484 E0.00611
G1 X1.923 Y-11.43 E0.05949
G1 X1.501 Y-11.488 E0.00872
G1 X-0.732 Y-13.721 E0.06467
G1 X-0.833 Y-13.756 E0.0022
G1 X-1.203 Y-13.829 E0.00772
G1 X1.079 Y-11.547 E0.0661
G1 X0.888 Y-11.573 E0.00396
G1 X0.683 Y-11.579 E0.00419
G1 X-1.611 Y-13.874 E0.06645
G1 X-1.876 Y-13.891 E0.00542
G1 X-1.992 Y-13.891 E0.00239
G1 X0.309 Y-11.591 E0.06662
G1 X-0.066 Y-11.602 E0.00768
G1 X-2.356 Y-13.891 E0.0663
G1 X-2.719 Y-13.891 E0.00745
G1 X-0.422 Y-11.594 E0.06653
G1 X-0.772 Y-11.58 E0.00717
G1 X-3.083 Y-13.891 E0.06693
G1 X-3.446 Y-13.891 E0.00745
G1 X-1.104 Y-11.549 E0.06783
G1 X-1.431 Y-11.512 E0.00673
G1 X-3.81 Y-13.891 E0.06889
G1 X-4.173 Y-13.891 E0.00744
G1 X-1.753 Y-11.471 E0.07009
G1 X-2.058 Y-11.412 E0.00636
G1 X-4.537 Y-13.891 E0.07179
G1 X-4.901 Y-13.891 E0.00744
G1 X-2.363 Y-11.354 E0.07348
G1 X-2.639 Y-11.301 E0.00575
G1 X-2.667 Y-11.294 E0.00058
G1 X-5.264 Y-13.891 E0.07522
G1 X-5.628 Y-13.891 E0.00745
G1 X-2.954 Y-11.218 E0.07742
G1 X-3.242 Y-11.142 E0.00609
G1 X-5.991 Y-13.891 E0.07963
G1 X-6.355 Y-13.891 E0.00744
G1 X-3.521 Y-11.057 E0.08208
G1 X-3.791 Y-10.964 E0.00585
G1 X-6.718 Y-13.891 E0.08477
G1 X-7.082 Y-13.891 E0.00745
G1 X-4.062 Y-10.871 E0.08746
G1 X-4.119 Y-10.852 E0.00123
G1 X-4.319 Y-10.765 E0.00448
G1 X-7.446 Y-13.891 E0.09053
G1 X-7.809 Y-13.891 E0.00744
G1 X-4.574 Y-10.656 E0.0937
G1 X-4.828 Y-10.546 E0.00567
G1 X-8.173 Y-13.891 E0.09686
G1 X-8.536 Y-13.891 E0.00745
G1 X-5.078 Y-10.433 E0.10015
G1 X-5.318 Y-10.309 E0.00553
G1 X-8.9 Y-13.891 E0.10373
G1 X-9.263 Y-13.891 E0.00745
G1 X-5.558 Y-10.186 E0.1073
G1 X-5.681 Y-10.123 E0.00283
G1 X-5.792 Y-10.056 E0.00264
G1 X-9.627 Y-13.891 E0.11107
G1 X-9.99 Y-13.891 E0.00745
G1 X-6.018 Y-9.918 E0.11505
G1 X-6.244 Y-9.781 E0.00542
G1 X-10.354 Y-13.891 E0.11904
G1 X-10.718 Y-13.891 E0.00745
G1 X-6.462 Y-9.636 E0.12324
G1 X-6.674 Y-9.484 E0.00534
G1 X-11.081 Y-13.891 E0.12764
G1 X-11.445 Y-13.891 E0.00745
G1 X-6.885 Y-9.332 E0.13204
G1 X-7.097 Y-9.18 E0.00534
G1 X-11.808 Y-13.891 E0.13644
G1 X-12.172 Y-13.891 E0.00745
G1 X-7.299 Y-9.018 E0.14113
G1 X-7.498 Y-8.854 E0.00529
G1 X-12.535 Y-13.891 E0.14587
G1 X-12.899 Y-13.891 E0.00745
G1 X-7.696 Y-8.688 E0.15067
G1 X-7.883 Y-8.512 E0.00527
G1 X-13.263 Y-13.891 E0.15578
G1 X-13.626 Y-13.891 E0.00745
G1 X-8.071 Y-8.335 E0.16089
G1 X-8.243 Y-8.173 E0.00485
G1 X-8.256 Y-8.158 E0.00042
G1 X-13.891 Y-13.793 E0.16317
G1 X-13.891 Y-13.429 E0.00745
G1 X-8.428 Y-7.966 E0.15821
G1 X-8.6 Y-7.774 E0.00527
G1 X-13.891 Y-13.065 E0.15325
G1 X-13.891 Y-12.702 E0.00744
G1 X-8.771 Y-7.582 E0.14828
G1 X-8.943 Y-7.39 E0.00527
G1 X-13.891 Y-12.338 E0.14331
G1 X-13.891 Y-11.975 E0.00744
G1 X-9.102 Y-7.185 E0.1387
G1 X-9.256 Y-6.976 E0.00533
G1 X-13.891 Y-11.611 E0.13423
G1 X-13.891 Y-11.248 E0.00745
G1 X-9.41 Y-6.767 E0.12977
G1 X-9.564 Y-6.557 E0.00532
G1 X-13.891 Y-10.884 E0.1253
G1 X-13.891 Y-10.52 E0.00745
G1 X-9.712 Y-6.342 E0.12102
G1 X-9.846 Y-6.112 E0.00544
G1 X-13.891 Y-10.157 E0.11715
G1 X-13.891 Y-9.793 E0.00744
G1 X-9.98 Y-5.882 E0.11328
G1 X-10.113 Y-5.652 E0.00544
G1 X-13.891 Y-9.43 E0.10941
G1 X-13.891 Y-9.066 E0.00744
G1 X-10.247 Y-5.422 E0.10553
G1 X-10.355 Y-5.236 E0.00442
G1 X-10.376 Y-5.188 E0.00107
G1 X-13.891 Y-8.703 E0.10178
G1 X-13.891 Y-8.339 E0.00745
G1 X-10.487 Y-4.935 E0.09857
G1 X-10.598 Y-4.683 E0.00565
G1 X-13.891 Y-7.975 E0.09536
G1 X-13.891 Y-7.612 E0.00745
G1 X-10.709 Y-4.43 E0.09214
G1 X-10.82 Y-4.178 E0.00565
G1 X-13.891 Y-7.248 E0.08893
G1 X-13.891 Y-6.885 E0.00745
G1 X-10.917 Y-3.91 E0.08614
G1 X-11.005 Y-3.635 E0.00592
G1 X-13.891 Y-6.521 E0.08358
G1 X-13.891 Y-6.158 E0.00745
G1 X-11.093 Y-3.36 E0.08103
G1 X-11.181 Y-3.084 E0.00592
G1 X-13.891 Y-5.794 E0.07847
G1 X-13.891 Y-5.431 E0.00744
G1 X-11.253 Y-2.792 E0.07641
G1 X-11.316 Y-2.492 E0.00629
G1 X-13.891 Y-5.067 E0.07457
G1 X-13.891 Y-4.703 E0.00745
G1 X-11.379 Y-2.191 E0.07275
G1 X-11.442 Y-1.891 E0.00629
G1 X-13.891 Y-4.34 E0.07092
G1 X-13.891 Y-3.976 E0.00745
G1 X-11.487 Y-1.572 E0.06963
G1 X-11.518 Y-1.24 E0.00683
G1 X-13.891 Y-3.613 E0.06871
G1 X-13.891 Y-3.249 E0.00745
G1 X-11.55 Y-0.908 E0.0678
G1 X-11.582 Y-0.576 E0.00682
G1 X-13.891 Y-2.886 E0.06688
G1 X-13.891 Y-2.522 E0.00745
G1 X-11.592 Y-0.223 E0.06658
G1 X-11.585 Y0.147 E0.00758
G1 X-13.891 Y-2.158 E0.06678
G1 X-13.891 Y-1.795 E0.00744
G1 X-11.578 Y0.518 E0.06698
G1 X-11.573 Y0.841 E0.00662
G1 X-11.566 Y0.894 E0.00109
G1 X-13.891 Y-1.431 E0.06733
G1 X-13.891 Y-1.068 E0.00745
G1 X-11.515 Y1.309 E0.06882
G1 X-11.463 Y1.724 E0.00857
G1 X-13.891 Y-0.704 E0.07031
G1 X-13.891 Y-0.341 E0.00744
G1 X-11.396 Y2.154 E0.07225
G1 X-11.286 Y2.628 E0.00997
G1 X-13.891 Y0.023 E0.07545
G1 X-13.891 Y0.386 E0.00744
G1 X-11.175 Y3.102 E0.07865
G1 X-11.152 Y3.204 E0.00214
G1 X-10.997 Y3.645 E0.00957
G1 X-13.891 Y0.75 E0.08383
G1 X-13.891 Y1.114 E0.00744
G1 X-10.799 Y4.206 E0.08955
G1 X-10.701 Y4.485 E0.00607
G1 X-10.529 Y4.839 E0.00805
G1 X-13.891 Y1.477 E0.09736
G1 X-13.891 Y1.841 E0.00744
G1 X-9.87 Y5.861 E0.11644
M106 S255
G1 E-0.9 F2100
;WIPE_START
G1 F7200
G1 X-10.113 Y5.619 E-0.095
;WIPE_END
G1 E-0.005 F2100
G1 Z20.4 F9000
; acceleration to travel
M204 P1000 T1500
G1 X1.297 Y9.724
; decel to extrusion
M204 P1000 T1000
G1 X4.084 Y10.727
; end travel
M204 P1000 T1500
G1 Z20.2
G1 E1.000000 F2100
M106 S255
G1 F1200
G1 X4.291 Y10.934 E0.006
G1 X4.253 Y10.975 E0.00114
G1 X4.073 Y11.079 E0.00427
G1 X3.909 Y10.915 E0.00474
G1 X3.771 Y10.97 E0.00305
G1 X3.638 Y11.008 E0.00282
G1 X3.842 Y11.212 E0.00592
G1 X3.612 Y11.345 E0.00545
G1 X3.355 Y11.089 E0.00744
G1 X3.072 Y11.169 E0.00603
G1 X3.381 Y11.478 E0.00896
G1 X3.151 Y11.612 E0.00545
G1 X2.789 Y11.25 E0.01048
G1 X2.567 Y11.313 E0.00474
G1 X2.5 Y11.324 E0.00138
G1 X2.921 Y11.745 E0.01217
G1 X2.69 Y11.878 E0.00545
G1 X2.19 Y11.377 E0.01449
G1 X1.879 Y11.43 E0.00645
G1 X2.46 Y12.011 E0.01681
G1 X2.229 Y12.144 E0.00545
G1 X1.569 Y11.483 E0.01913
G1 X1.331 Y11.524 E0.00493
G1 X1.25 Y11.529 E0.00165
G1 X1.999 Y12.277 E0.02167
G1 X1.768 Y12.41 E0.00545
G1 X0.908 Y11.55 E0.02491
G1 X0.565 Y11.571 E0.00703
G1 X1.538 Y12.543 E0.02815
G1 X1.307 Y12.676 E0.00545
G1 X0.223 Y11.592 E0.03141
G1 X0.081 Y11.6 E0.00291
G1 X-0.143 Y11.59 E0.00458
G1 X1.077 Y12.809 E0.03531
G1 X0.846 Y12.942 E0.00545
G1 X-0.524 Y11.572 E0.03968
G1 X-0.906 Y11.554 E0.00782
G1 X0.616 Y13.075 E0.04406
G1 X0.385 Y13.208 E0.00545
G1 X-1.302 Y11.521 E0.04886
G1 X-1.733 Y11.454 E0.00893
G1 X0.155 Y13.342 E0.05467
G1 X0.134 Y13.353 E0.00048
G1 X-0.087 Y13.464 E0.00506
G1 X-2.164 Y11.387 E0.06016
G1 X-2.409 Y11.348 E0.00507
G1 X-2.624 Y11.29 E0.00456
G1 X-0.332 Y13.582 E0.06635
G1 X-0.602 Y13.676 E0.00585
G1 X-3.121 Y11.156 E0.07296
G1 X-3.619 Y11.022 E0.01055
G1 X-0.878 Y13.763 E0.07938
G1 X-1.181 Y13.823 E0.00634
G1 X-4.209 Y10.795 E0.08769
G1 X-4.698 Y10.608 E0.01073
G1 X-4.827 Y10.541 E0.00296
G1 X-1.501 Y13.867 E0.09632
G1 X-1.843 Y13.889 E0.00701
G1 X-5.832 Y9.899 E0.11554
M106 S255
G1 E-0.9 F2100
;WIPE_START
G1 F7200
G1 X-5.59 Y10.142 E-0.095
;WIPE_END
G1 E-0.005 F2100
G1 Z20.4 F9000
; acceleration to travel
G1 X-2.78 Y13.244
; decel to extrusion
M204 P1000 T1000
G1 X-2.094 Y14.002
; end travel
M204 P1000 T1500
G1 Z20.2
G1 E1.000000 F2100
M106 S255
G1 F1200
G1 X-6.517 Y9.579 E0.12809
G1 X-6.95 Y9.29 E0.01066
G1 X-7.912 Y8.486 E0.02568
G1 X-8.782 Y7.582 E0.02568
G1 X-9.549 Y6.591 E0.02567
G1 X-9.62 Y6.475 E0.00278
G1 X-13.891 Y2.204 E0.12369
G1 X-13.891 Y2.568 E0.00744
G1 X-2.568 Y13.891 E0.32792
G1 X-2.931 Y13.891 E0.00745
G1 X-13.891 Y2.931 E0.31739
G1 X-13.891 Y3.295 E0.00745
G1 X-3.295 Y13.891 E0.30686
G1 X-3.659 Y13.891 E0.00745
G1 X-13.891 Y3.659 E0.29633
G1 X-13.891 Y4.022 E0.00745
G1 X-4.022 Y13.891 E0.2858
G1 X-4.386 Y13.891 E0.00745
G1 X-13.891 Y4.386 E0.27528
G1 X-13.891 Y4.749 E0.00744
G1 X-4.749 Y13.891 E0.26475
G1 X-5.113 Y13.891 E0.00745
G1 X-13.891 Y5.113 E0.25421
G1 X-13.891 Y5.476 E0.00745
G1 X-5.476 Y13.891 E0.24369
G1 X-5.84 Y13.891 E0.00745
G1 X-13.891 Y5.84 E0.23316
G1 X-13.891 Y6.204 E0.00744
G1 X-6.204 Y13.891 E0.22264
G1 X-6.567 Y13.891 E0.00744
G1 X-13.891 Y6.567 E0.21211
G1 X-13.891 Y6.931 E0.00744
G1 X-6.931 Y13.891 E0.20158
G1 X-7.294 Y13.891 E0.00744
G1 X-13.891 Y7.294 E0.19105
G1 X-13.891 Y7.658 E0.00744
G1 X-7.658 Y13.891 E0.18052
G1 X-8.021 Y13.891 E0.00745
G1 X-13.891 Y8.021 E0.16999
G1 X-13.891 Y8.385 E0.00744
G1 X-8.385 Y13.891 E0.15946
G1 X-8.748 Y13.891 E0.00745
G1 X-13.891 Y8.748 E0.14893
G1 X-13.891 Y9.112 E0.00744
G1 X-9.112 Y13.891 E0.13841
G1 X-9.476 Y13.891 E0.00744
G1 X-13.891 Y9.476 E0.12787
G1 X-13.891 Y9.839 E0.00745
G1 X-9.839 Y13.891 E0.11734
G1 X-10.203 Y13.891 E0.00745
G1 X-13.891 Y10.203 E0.10681
G1 X-13.891 Y10.566 E0.00745
G1 X-10.566 Y13.891 E0.09629
G1 X-10.93 Y13.891 E0.00744
G1 X-13.891 Y10.93 E0.08576
G1 X-13.891 Y11.293 E0.00744
G1 X-11.293 Y13.891 E0.07523
G1 X-11.657 Y13.891 E0.00745
G1 X-13.891 Y11.657 E0.0647
G1 X-13.891 Y12.021 E0.00744
G1 X-12.021 Y13.891 E0.05418
G1 X-12.384 Y13.891 E0.00744
G1 X-13.891 Y12.384 E0.04364
G1 X-13.891 Y12.748 E0.00745
G1 X-12.748 Y13.891 E0.03311
G1 X-13.111 Y13.891 E0.00745
G1 X-13.891 Y13.111 E0.02258
G1 X-13.891 Y13.475 E0.00745
G1 X-13.475 Y13.891 E0.01205
G1 X-13.838 Y13.891 E0.00745
G1 X-14.002 Y13.728 E0.00473
M106 S255
M204 P1000 T1000
G1 X-14.079 Y14.079 F9000
;TYPE:Internal perimeter
;WIDTH:0.299999
M106 S255
G1 F1200
G1 X-1.869 Y14.079 E0.26099
G1 X-1.332 Y14.044 E0.01151
G1 X-0.77 Y13.933 E0.01224
G1 X-0.226 Y13.743 E0.01231
G1 X0.223 Y13.519 E0.01075
G1 X4.355 Y11.133 E0.10198
G1 X4.407 Y11.091 E0.00144
M106 S255
;WIDTH:0.324654
M106 S255
G1 X4.46 Y11.049 E0.00158
M106 S255
;WIDTH:0.349309
M106 S255
G1 X4.512 Y11.007 E0.00171
M106 S255
;WIDTH:0.373963
M106 S255
G1 X4.565 Y10.965 E0.00185
M106 S255
;WIDTH:0.398618
M106 S255
G1 X4.617 Y10.922 E0.002
M106 S255
;WIDTH:0.423272
M106 S255
G1 X4.67 Y10.88 E0.00212
G1 X4.903 Y10.755 E0.00837
M106 S255
;WIDTH:0.391148
M106 S255
G1 X5.136 Y10.63 E0.00766
G1 X6.123 Y10.068 E0.03288
G1 X6.461 Y9.868 E0.01137
G1 X6.461 Y9.442 E0.01233
M106 S255
;WIDTH:0.385461
M106 S255
G1 X6.046 Y9.725 E0.01429
G1 X5.96 Y9.777 E0.00289
G1 X4.965 Y10.326 E0.03234
G1 X4.734 Y10.433 E0.00726
M106 S255
;WIDTH:0.423272
M106 S255
G1 X4.502 Y10.54 E0.00807
G1 X4.437 Y10.555 E0.00213
M106 S255
;WIDTH:0.398618
M106 S255
G1 X4.372 Y10.571 E0.00199
M106 S255
;WIDTH:0.373963
M106 S255
G1 X4.306 Y10.587 E0.00185
M106 S255
;WIDTH:0.349309
M106 S255
G1 X4.241 Y10.603 E0.00171
M106 S255
;WIDTH:0.324654
M106 S255
G1 X4.175 Y10.619 E0.00158
M106 S255
;WIDTH:0.299999
M106 S255
G1 X4.11 Y10.634 E0.00144
G1 X3.714 Y10.791 E0.00911
G1 X2.623 Y11.107 E0.02427
G1 X2.528 Y11.129 E0.00208
G1 X1.41 Y11.325 E0.02428
G1 X1.313 Y11.337 E0.00207
G1 X0.18 Y11.412 E0.02428
G1 X-0.654 Y11.381 E0.01783
G1 X-1.304 Y11.332 E0.01394
G1 X-2.271 Y11.185 E0.02092
G1 X-2.366 Y11.165 E0.00207
G1 X-3.464 Y10.875 E0.02428
G1 X-3.557 Y10.845 E0.00208
G1 X-4.625 Y10.435 E0.02445
G1 X-4.714 Y10.395 E0.00209
G1 X-5.724 Y9.875 E0.02429
G1 X-5.808 Y9.826 E0.00208
G1 X-6.757 Y9.199 E0.0243
G1 X-6.835 Y9.142 E0.00207
G1 X-7.71 Y8.417 E0.0243
G1 X-8.573 Y7.536 E0.02637
G1 X-8.637 Y7.462 E0.00208
G1 X-9.337 Y6.566 E0.02429
G1 X-9.392 Y6.487 E0.00208
G1 X-9.991 Y5.52 E0.0243
G1 X-10.038 Y5.435 E0.00208
G1 X-10.529 Y4.41 E0.02429
G1 X-10.566 Y4.32 E0.00208
G1 X-10.943 Y3.248 E0.0243
G1 X-10.97 Y3.155 E0.00207
G1 X-11.23 Y2.048 E0.0243
G1 X-11.247 Y1.952 E0.00208
G1 X-11.386 Y0.824 E0.0243
G1 X-11.392 Y0.727 E0.00207
G1 X-11.408 Y-0.409 E0.0243
G1 X-11.404 Y-0.506 E0.00208
G1 X-11.297 Y-1.638 E0.0243
G1 X-11.283 Y-1.734 E0.00208
G1 X-11.055 Y-2.848 E0.02429
G1 X-11.03 Y-2.942 E0.00208
G1 X-10.683 Y-4.024 E0.0243
G1 X-10.648 Y-4.115 E0.00208
G1 X-10.186 Y-5.154 E0.0243
G1 X-10.142 Y-5.24 E0.00208
G1 X-9.571 Y-6.223 E0.02429
G1 X-9.518 Y-6.304 E0.00208
G1 X-8.844 Y-7.22 E0.0243
G1 X-8.152 Y-7.997 E0.02223
G1 X-7.59 Y-8.534 E0.01663
G1 X-7.068 Y-8.967 E0.01449
G1 X-6.246 Y-9.56 E0.02167
G1 X-5.588 Y-9.96 E0.01647
G1 X-4.98 Y-10.274 E0.01462
G1 X-4.049 Y-10.677 E0.0217
G1 X-3.327 Y-10.925 E0.01631
G1 X-2.66 Y-11.104 E0.01476
G1 X-1.663 Y-11.297 E0.02171
G1 X-0.978 Y-11.377 E0.01474
G1 X-0.255 Y-11.414 E0.01548
G1 X0.801 Y-11.391 E0.02256
G1 X1.545 Y-11.316 E0.016
G1 X2.238 Y-11.197 E0.01503
G1 X3.226 Y-10.953 E0.02176
G1 X3.931 Y-10.723 E0.01584
G1 X4.066 Y-10.68 E0.00304
M106 S255
;WIDTH:0.326838
M106 S255
G1 X4.202 Y-10.636 E0.00336
M106 S255
;WIDTH:0.353676
M106 S255
G1 X4.338 Y-10.593 E0.00368
M106 S255
;WIDTH:0.380515
M106 S255
G1 X4.473 Y-10.549 E0.004
M106 S255
;WIDTH:0.407353
M106 S255
G1 X4.609 Y-10.506 E0.00431
G1 X5.063 Y-10.272 E0.01549
M106 S255
;WIDTH:0.373161
M106 S255
G1 X5.518 Y-10.038 E0.01404
G1 X6.154 Y-9.666 E0.02023
G1 X6.465 Y-9.455 E0.01032
G1 X6.465 Y-9.87 E0.0114
G1 X5.746 Y-10.289 E0.02284
G1 X5.293 Y-10.541 E0.01423
M106 S255
;WIDTH:0.40331
M106 S255
G1 X4.84 Y-10.793 E0.01553
G1 X4.701 Y-10.868 E0.00475
M106 S255
;WIDTH:0.423268
M106 S255
G1 X4.561 Y-10.943 E0.00501
G1 X4.495 Y-10.993 E0.00262
M106 S255
;WIDTH:0.398615
M106 S255
G1 X4.429 Y-11.043 E0.00246
M106 S255
;WIDTH:0.373961
M106 S255
G1 X4.363 Y-11.093 E0.00228
M106 S255
;WIDTH:0.349307
M106 S255
G1 X4.297 Y-11.143 E0.00211
M106 S255
;WIDTH:0.324653
M106 S255
G1 X4.23 Y-11.193 E0.00195
M106 S255
;WIDTH:0.299999
M106 S255
G1 X4.164 Y-11.243 E0.00177
G1 X0.225 Y-13.518 E0.09723
G1 X-0.27 Y-13.762 E0.0118
G1 X-0.785 Y-13.938 E0.01163
G1 X-1.318 Y-14.043 E0.01163
G1 X-1.87 Y-14.079 E0.0118
G1 X-14.079 Y-14.079 E0.26099
G1 X-14.079 Y14.019 E0.60062
M106 S255
G1 X-14.336 Y14.336 F9000
M106 S255
G1 F1200
G1 X-1.861 Y14.336 E0.26666
G1 X-1.299 Y14.3 E0.01205
G1 X-0.702 Y14.182 E0.01299
G1 X-0.126 Y13.981 E0.01305
G1 X0.345 Y13.745 E0.01127
G1 X6.76 Y10.041 E0.15834
G1 X6.76 Y8.87 E0.02505
G1 X5.878 Y9.481 E0.02296
G1 X5.819 Y9.518 E0.00148
G1 X4.821 Y10.06 E0.02427
G1 X4.012 Y10.397 E0.01873
G1 X3.642 Y10.544 E0.00851
G1 X2.552 Y10.86 E0.02428
G1 X2.484 Y10.876 E0.00148
G1 X1.365 Y11.072 E0.02428
G1 X1.296 Y11.081 E0.00148
G1 X0.163 Y11.155 E0.02428
G1 X-0.643 Y11.125 E0.01724
G1 X-1.265 Y11.078 E0.01335
G1 X-2.233 Y10.931 E0.02091
G1 X-2.301 Y10.917 E0.00148
G1 X-3.399 Y10.626 E0.02428
G1 X-3.465 Y10.605 E0.00149
G1 X-4.533 Y10.195 E0.02445
G1 X-4.596 Y10.166 E0.00149
G1 X-5.607 Y9.646 E0.02429
G1 X-5.667 Y9.611 E0.00149
G1 X-6.615 Y8.985 E0.02429
G1 X-6.671 Y8.944 E0.00149
G1 X-7.546 Y8.219 E0.02429
G1 X-8.389 Y7.356 E0.02578
G1 X-8.435 Y7.304 E0.00148
G1 X-9.134 Y6.408 E0.0243
G1 X-9.174 Y6.351 E0.00148
G1 X-9.773 Y5.385 E0.0243
G1 X-9.806 Y5.324 E0.00148
G1 X-10.297 Y4.299 E0.0243
G1 X-10.323 Y4.235 E0.00148
G1 X-10.701 Y3.163 E0.0243
G1 X-10.72 Y3.096 E0.00148
G1 X-10.98 Y1.989 E0.0243
G1 X-10.992 Y1.921 E0.00148
G1 X-11.13 Y0.793 E0.0243
G1 X-11.135 Y0.724 E0.00148
G1 X-11.151 Y-0.413 E0.0243
G1 X-11.148 Y-0.482 E0.00149
G1 X-11.041 Y-1.614 E0.02429
